!!!!SEGMENT: pl-wtm--r-1556--005_stefani-jozef--msza-no-15-benedictus.krn
!!!id: 18xx:1833
!!!COM: Stefani, Józef
!!!COM-rism: pe30024097
!!!CDT: 1800/04/16-1876/03/19
!!!CNT: Polish
!!!OTL: Msza No 15 – Benedictus
!!!PDT: 1858
!!!SMS-siglum: PL-Wtm
!!!SMS-shelfmark: R 1556
!!!NIFC-rismID: 1001115188
!!!URL-scan: http://repozytorium.nifc.pl/skany/pl-wtm-nut--r1556
!!!ONB-nifc: UWAGA: części Mszy: 1. Kyrie, 2. Gloria, 3. Credo, 4. Sanctus, 5. Benedictus,
!!!SMS-variant:
!!!SMS-altvar:
**kern	**dynam	**kern	**dynam	**kern	**text	**dynam	**kern	**text	**dynam	**kern	**text	**dynam	**kern	**text	**dynam	**kern	**kern	**dynam	**kern	**dynam	**kern	**dynam	**kern	**dynam	**kern	**dynam	**kern	**kern	**kern	**kern	**kern	**kern
*part18	*part18	*part17	*part17	*part16	*part16	*part16	*part15	*part15	*part15	*part14	*part14	*part14	*part13	*part13	*part13	*part12	*part11	*part11	*part10	*part10	*part9	*part9	*part8	*part8	*part7	*part7	*part6	*part5	*part4	*part3	*part2	*part1
*staff18	*	*staff17	*	*staff16	*staff16	*	*staff15	*staff15	*	*staff14	*staff14	*	*staff13	*staff13	*	*staff12	*staff11	*	*staff10	*	*staff9	*	*staff8	*	*staff7	*	*staff6	*staff5	*staff4	*staff3	*staff2	*staff1
*I"C: Baſsi	*	*I"Violoncelli	*	*I"Baſso	*	*	*I"Tenore	*	*	*I"Alto	*	*	*I"Soprano	*	*	*I"Es. b. Timpani	*I"Viole	*	*I"Violino	*	*I"Violini	*	*I"Tromboni	*	*I"in B. Trombe	*	*I"Fagotti	*I"in Es Corni	*I"in B Clarinetti	*I"Oboe	*I"Flautti	*I"Flautti
*I'cb	*	*I'vc	*	*I'B.	*	*	*I'T.	*	*	*I'A.	*	*	*I'S.	*	*	*I'timp	*I'vle	*	*	*	*I'vn	*	*I'trbn	*	*I'tr	*	*I'fg	*I'cor	*I'cl	*I'ob	*	*I'fl
*clefF4	*	*clefF4	*	*clefF4	*	*	*clefC4	*	*	*clefC3	*	*	*clefC1	*	*	*clefF4	*clefC3	*	*clefG2	*	*clefG2	*	*clefF4	*	*clefG2	*	*clefF4	*clefG2	*clefG2	*clefG2	*clefG2	*clefG2
*ITrd0c0	*	*	*	*	*	*	*	*	*	*	*	*	*	*	*	*	*	*	*	*	*	*	*	*	*ITrd1c2	*	*	*ITrd5c9	*ITrd1c2	*	*	*
*k[b-e-a-]	*	*k[b-e-a-]	*	*k[b-e-a-]	*	*	*k[b-e-a-]	*	*	*k[b-e-a-]	*	*	*k[b-e-a-]	*	*	*k[b-e-a-]	*k[b-e-a-]	*	*k[b-e-a-]	*	*k[b-e-a-]	*	*k[b-e-a-]	*	*k[b-e-a-]	*	*k[b-e-a-]	*k[b-e-a-]	*k[b-e-a-]	*k[b-e-a-]	*k[b-e-a-]	*k[b-e-a-]
*M3/4	*	*M3/4	*	*M3/4	*	*	*M3/4	*	*	*M3/4	*	*	*M3/4	*	*	*M3/4	*M3/4	*	*M3/4	*	*M3/4	*	*M3/4	*	*M3/4	*	*M3/4	*M3/4	*M3/4	*M3/4	*M3/4	*M3/4
*	*below	*	*below	*	*	*	*	*	*	*	*	*	*	*	*	*	*	*	*	*	*	*	*	*	*	*	*	*	*	*	*	*
=1	=1	=1	=1	=1	=1	=1	=1	=1	=1	=1	=1	=1	=1	=1	=1	=1	=1	=1	=1	=1	=1	=1	=1	=1	=1	=1	=1	=1	=1	=1	=1	=1
*	*	*	*	*	*	*	*	*	*	*	*	*	*	*	*	*	*	*	*	*	*	*	*	*	*	*	*^	*	*^	*	*	*
!	!	!	!	!	!	!	!	!	!	!	!	!	!	!	!	!	!	!	!	!	!	!	!	!	!	!	!	!	!	!	!	!LO:TX:t=P:problem:all\right:global	!	!
!	!	!	!	!	!	!	!	!	!	!	!	!	!LO:TX:t=P:problem:kolejność znaków b- ee- a-	!	!	!	!	!	!	!	!	!	!	!	!	!	!	!	!	!	!	!	!	!LO:TX:a:t=Adagio. Benedictus. Quartetto.
2.r	.	2.ryy	.	2.r	.	.	2.r	.	.	2.r	.	.	2.r	.	.	2.ryy	2.r	.	2.r	.	2.r	.	2.ryy	.	2.ryy	.	4rE	4rFF	2.r	8ee-/	4rGyy	2.ryy	2.ryy	2.ryy
.	.	.	.	.	.	.	.	.	.	.	.	.	.	.	.	.	.	.	.	.	.	.	.	.	.	.	.	.	.	8r	.	.	.	.
.	.	.	.	.	.	.	.	.	.	.	.	.	.	.	.	.	.	.	.	.	.	.	.	.	.	.	(2e-/	4c\	.	(4ee-/	8g\L	.	.	.
.	.	.	.	.	.	.	.	.	.	.	.	.	.	.	.	.	.	.	.	.	.	.	.	.	.	.	.	.	.	.	8g-X\J	.	.	.
.	.	.	.	.	.	.	.	.	.	.	.	.	.	.	.	.	.	.	.	.	.	.	.	.	.	.	.	4c-X\	.	4a/)	4f\	.	.	.
*	*	*	*	*	*	*	*	*	*	*	*	*	*	*	*	*	*	*	*	*	*	*	*	*	*	*	*v	*v	*	*	*	*	*	*
=2	=2	=2	=2	=2	=2	=2	=2	=2	=2	=2	=2	=2	=2	=2	=2	=2	=2	=2	=2	=2	=2	=2	=2	=2	=2	=2	=2	=2	=2	=2	=2	=2	=2
2.r	.	2.ryy	.	2.r	.	.	2.r	.	.	2.r	.	.	2.r	.	.	2.ryy	2.r	.	2.r	.	2.r	.	2.ryy	.	2.ryy	.	4.d\ 4.B-\)	2.r	4.b-/	4.f\	2.ryy	2.ryy	2.ryy
.	.	.	.	.	.	.	.	.	.	.	.	.	.	.	.	.	.	.	.	.	.	.	.	.	.	.	(8e-\L 8An\	.	(8cc/L	8g-X\L	.	.	.
.	.	.	.	.	.	.	.	.	.	.	.	.	.	.	.	.	.	.	.	.	.	.	.	.	.	.	8d\ 8B-\	.	8b-/	8f\	.	.	.
.	.	.	.	.	.	.	.	.	.	.	.	.	.	.	.	.	.	.	.	.	.	.	.	.	.	.	8e-\J 8A\	.	8cc/J	8g-\J	.	.	.
=3	=3	=3	=3	=3	=3	=3	=3	=3	=3	=3	=3	=3	=3	=3	=3	=3	=3	=3	=3	=3	=3	=3	=3	=3	=3	=3	=3	=3	=3	=3	=3	=3	=3
2.r	.	2.ryy	.	2.r	.	.	2.r	.	.	2.r	.	.	2.r	.	.	2.ryy	2.r	.	2.r	.	2.r	.	2.ryy	.	2.ryy	.	4.d\ 4.B-\)	2.r	4.b-/)	4.f\	2.ryy	2.ryy	2.ryy
.	.	.	.	.	.	.	.	.	.	.	.	.	.	.	.	.	.	.	.	.	.	.	.	.	.	.	(8e-\L 8An\	.	(8cc/L	8g-X\L	.	.	.
.	.	.	.	.	.	.	.	.	.	.	.	.	.	.	.	.	.	.	.	.	.	.	.	.	.	.	8d\ 8B-\	.	8b-/	8f\	.	.	.
.	.	.	.	.	.	.	.	.	.	.	.	.	.	.	.	.	.	.	.	.	.	.	.	.	.	.	8e-\J 8A\	.	8cc/J	8g-\J	.	.	.
=4	=4	=4	=4	=4	=4	=4	=4	=4	=4	=4	=4	=4	=4	=4	=4	=4	=4	=4	=4	=4	=4	=4	=4	=4	=4	=4	=4	=4	=4	=4	=4	=4	=4
2.r	.	2.ryy	.	2.r	.	.	2.r	.	.	2.r	.	.	8r	.	.	2.ryy	2.r	.	2.r	.	2.r	.	2.ryy	.	2.ryy	.	4d\ 4B-\)	4r	4b-/)	4f\	2.ryy	2.ryy	2.ryy
.	.	.	.	.	.	.	.	.	.	.	.	.	4b-^\	Be-	.	.	.	.	.	.	.	.	.	.	.	.	.	.	.	.	.	.	.
.	.	.	.	.	.	.	.	.	.	.	.	.	.	.	.	.	.	.	.	.	.	.	.	.	.	.	4r	8r	4r	4rByy	.	.	.
!	!	!	!	!	!	!	!	!	!	!	!	!	!	!	!LO:DY:a	!	!	!	!	!	!	!	!	!	!	!	!	!	!	!	!	!	!
.	.	.	.	.	.	.	.	.	.	.	.	.	(16cc\LL	.	<	.	.	.	.	.	.	.	.	.	.	.	.	(8a-\L 8f\	.	.	.	.	.
.	.	.	.	.	.	.	.	.	.	.	.	.	16b-\JJ	.	.	.	.	.	.	.	.	.	.	.	.	.	.	.	.	.	.	.	.
.	.	.	.	.	.	.	.	.	.	.	.	.	16an\LL	.	.	.	.	.	.	.	.	.	.	.	.	.	4r	8g\ 8e-\	4r	4rByy	.	.	.
.	.	.	.	.	.	.	.	.	.	.	.	.	16b-\	.	.	.	.	.	.	.	.	.	.	.	.	.	.	.	.	.	.	.	.
.	.	.	.	.	.	.	.	.	.	.	.	.	16cc\	.	.	.	.	.	.	.	.	.	.	.	.	.	.	8f\J 8B-\)	.	.	.	.	.
.	.	.	.	.	.	.	.	.	.	.	.	.	16b-\JJ)	.	[[	.	.	.	.	.	.	f	.	.	.	.	.	.	.	.	.	.	.
*	*	*	*	*	*	*	*	*	*	*	*	*	*	*	*	*	*	*	*	*	*	*	*	*	*	*	*	*	*v	*v	*	*	*
=5	=5	=5	=5	=5	=5	=5	=5	=5	=5	=5	=5	=5	=5	=5	=5	=5	=5	=5	=5	=5	=5	=5	=5	=5	=5	=5	=5	=5	=5	=5	=5	=5
.	.	.	.	.	.	.	.	.	.	.	.	.	.	.	.	.	.	.	.	.	(16qqe-/LL	.	.	.	.	.	.	.	.	.	.	.
!	!	!LO:TX:t=P:problem:t. 5 w vc zapisany jako unisono cb, ukryte	!	!	!	!	!	!	!	!	!	!	!	!	!	!	!	!	!	!	!	!	!	!	!	!	!	!	!	!	!	!
.	.	.	.	.	.	.	.	.	.	.	.	.	.	.	.	.	.	.	.	.	16qqb-/JJ)	.	.	.	.	.	.	.	.	.	.	.
*	*	*	*	*	*	*	*	*	*	*	*	*	*	*	*	*	*^	*	*^	*	*	*	*	*	*	*	*	*	*	*	*	*
*	*	*	*	*2\right	*	*	*2\right	*	*	*2\right	*	*	*2\right	*	*	*	*2\right	*	*	*	*2\right	*	*2\right	*	*	*	*	*	*	*	*	*	*	*
!	!	!	!	!	!	!	!	!	!	!	!	!	!	!	!LO:DY:a	!	!	!	!	!	!	!	!	!	!	!	!	!	!	!	!	!	!	!
2E-\	f	2.ryy	.	2E-\	Be-	.	2e-\	.	.	2b-\	Be-	.	2gg\	.	f	2.ryy	2g\ 2B-\	4E-\	.	2b-/	2e-\	.	2gg\	.	2.ryy	.	2.ryy	.	2.r	4e-/ 4G/	2.r	2.ryy	2.ryy	2.ryy
.	.	.	.	.	.	.	.	.	.	.	.	.	.	.	.	.	.	4rDyy	.	.	.	.	.	.	.	.	.	.	.	4r	.	.	.	.
!LO:TX:a:t=|:problem	!	!LO:TX:a:t=|:problem	!	!	!	!	!	!	!	!	!	!	!	!	!	!	!	!	!	!	!	!	!LO:TX:a:t=|:problem	!	!	!	!	!	!	!	!	!	!	!
(4A-\	.	.	.	4A-\	-ne	.	4f\	.	.	4b-\	-ne	.	4dd\	-ne-	.	.	4g\ 4B-\	4rDyy	.	4b-/	4f\	.	4dd\	.	.	.	.	.	.	4r	.	.	.	.
*	*	*	*	*	*	*	*	*	*	*	*	*	*	*	*	*	*v	*v	*	*	*	*	*	*	*	*	*	*	*	*	*	*	*	*
!LO:PB:g=original	!	!LO:PB:g=original	!	!LO:PB:g=original	!	!	!	!	!	!LO:PB:g=original	!	!	!LO:PB:g=original	!	!	!	!LO:LB:g=original	!	!LO:LB:g=original	!	!	!	!	!	!	!	!	!	!LO:PB:g=original	!LO:PB:g=original	!LO:PB:g=original	!LO:PB:g=original	!LO:PB:g=original
=6	=6	=6	=6	=6	=6	=6	=6	=6	=6	=6	=6	=6	=6	=6	=6	=6	=6	=6	=6	=6	=6	=6	=6	=6	=6	=6	=6	=6	=6	=6	=6	=6	=6
!	!	!LO:TX:t=P:problem:t. 6-10 w vc zapisane jako unisono cb, ukryte	!	!	!	!	!	!	!	!	!	!	!	!	!	!	!	!	!	!	!	!LO:TX:a:t=|:problem	!	!	!	!	!	!	!	!	!	!	!
4G\)	.	4G\yy	.	4G\	.	.	4e-\	.	.	4b-\	.	.	4ff\	-dic-	.	2.ryy	4g\ 4B-\	.	4b-/	4e-\	.	4ff\	.	2.ryy	.	2.ryy	.	2.ryy	2.ryy	2.ryy	2.ryy	2.ryy	2.ryy
(4.G\	.	(4.G\yy	.	4.G\	.	.	4.e-\	.	.	4.b-\	.	.	4.ee-\	-tus	.	.	4.g\ 4.B-\	.	(4.b-/	4reyy	.	(4.ee-\	.	.	.	.	.	.	.	.	.	.	.
.	.	.	.	.	.	.	.	.	.	.	.	.	.	.	.	.	.	.	.	4reyy	.	.	.	.	.	.	.	.	.	.	.	.	.
8A-\)	.	8A-\)yy	.	8A-\	.	.	8e-\	.	.	8a-\	.	.	8cc\	qui	.	.	8e-\	.	8a-/)	.	.	8cc\)	.	.	.	.	.	.	.	.	.	.	.
*	*	*	*	*	*	*	*	*	*	*	*	*	*	*	*	*	*	*	*v	*v	*	*	*	*	*	*	*	*	*	*	*	*	*
=7	=7	=7	=7	=7	=7	=7	=7	=7	=7	=7	=7	=7	=7	=7	=7	=7	=7	=7	=7	=7	=7	=7	=7	=7	=7	=7	=7	=7	=7	=7	=7	=7
*2\right	*	*2\right	*	*	*	*	*	*	*	*	*	*	*	*	*	*	*	*	*	*	*	*	*	*	*	*	*	*	*	*	*	*
(2B-\	.	(2B-\yy	.	(2B-\	.	.	(2e-\	.	.	4g\	.	.	(4b-\	ve-	.	2.ryy	(2e-\	.	(4g/	.	(4b-/	.	2.ryy	.	2.ryy	.	2.ryy	2.ryy	2.ryy	2.ryy	2.ryy	2.ryy
.	.	.	.	.	.	.	.	.	.	2f\	.	.	2a-\)	.	.	.	.	.	2f/)	.	2a-/)	.	.	.	.	.	.	.	.	.	.	.
8BB-/L	.	8BB-/Lyy	.	8B-\L	.	.	4d\)	.	.	.	.	.	.	.	.	.	4d\)	.	.	.	.	.	.	.	.	.	.	.	.	.	.	.
8BBn/J	.	8BBn/Jyy	.	8Bn\J)	.	.	.	.	.	.	.	.	.	.	.	.	.	.	.	.	.	.	.	.	.	.	.	.	.	.	.	.
=8	=8	=8	=8	=8	=8	=8	=8	=8	=8	=8	=8	=8	=8	=8	=8	=8	=8	=8	=8	=8	=8	=8	=8	=8	=8	=8	=8	=8	=8	=8	=8	=8
4C/)	.	4C/)yy	.	4c\	.	.	4e-\	.	.	4e-\	.	.	4g\	-nit	.	2.ryy	4e-\	.	4e-/	.	4g/	.	2.ryy	.	2.ryy	.	2.ryy	2.ryy	2.ryy	2.ryy	2.ryy	2.ryy
4r	.	4ryy	.	4r	.	.	8r	.	.	4r	.	.	4r	.	.	.	4r	.	4r	.	4r	.	.	.	.	.	.	.	.	.	.	.
.	.	.	.	.	.	.	8e-\	in	.	.	.	.	.	.	.	.	.	.	.	.	.	.	.	.	.	.	.	.	.	.	.	.
4r	.	4ryy	.	4r	.	.	8G/	no-	.	4r	.	.	4r	.	.	.	4r	.	4r	.	4r	.	.	.	.	.	.	.	.	.	.	.
.	.	.	.	.	.	.	8An/	-mi-	.	.	.	.	.	.	.	.	.	.	.	.	.	.	.	.	.	.	.	.	.	.	.	.
=9	=9	=9	=9	=9	=9	=9	=9	=9	=9	=9	=9	=9	=9	=9	=9	=9	=9	=9	=9	=9	=9	=9	=9	=9	=9	=9	=9	=9	=9	=9	=9	=9
4r	.	4ryy	.	4r	.	.	4B-\	-ne	.	4r	.	.	4r	.	.	2.ryy	4r	.	4r	.	4r	.	2.ryy	.	2.ryy	.	2.ryy	2.ryy	2.ryy	2.ryy	2.ryy	2.ryy
!	!LO:DY:a	!	!	!	!	!	!	!	!	!	!	!	!	!	!	!	!	!	!	!	!	!	!	!	!	!	!	!	!	!	!	!
8r	p	8ryy	p	8r	.	.	8r	.	.	8r	.	.	8r	.	.	.	8r	p	8r	.	8r	.	.	.	.	.	.	.	.	.	.	.
!	!	!	!	!	!	!	!	!	!	!	!	!	!	!	!LO:DY:a	!	!	!	!	!	!	!	!	!	!	!	!	!	!	!	!	!
.	.	.	.	.	.	.	.	.	.	.	.	.	.	.	.	.	.	.	.	.	.	p	.	.	.	.	.	.	.	.	.	.
(8BB-'/L	.	(8BB-'/Lyy	.	4.BB-/	.	.	4.B-\	in	.	(8d\L	.	.	(8b-\L	in	<	.	(8B-'/L	.	(8d/L	.	(8b-\L	<	.	.	.	.	.	.	.	.	.	.
8BB-'/	.	8BB-'/yy	.	.	.	.	.	.	.	8e-\	.	.	8cc\)	.	.	.	8B-'/	.	8e-/	.	8cc\	.	.	.	.	.	.	.	.	.	.	.
8BB-'/J)	.	8BB-'/J)yy	.	.	.	.	.	.	.	8f\J)	.	.	8dd\J	.	.	.	8B-'/J)	.	8f/J)	.	8dd\J	.	.	.	.	.	.	.	.	.	.	.
=10	=10	=10	=10	=10	=10	=10	=10	=10	=10	=10	=10	=10	=10	=10	=10	=10	=10	=10	=10	=10	=10	=10	=10	=10	=10	=10	=10	=10	=10	=10	=10	=10
*tremolo	*	*tremolo	*	*	*	*	*	*	*	*	*	*	*	*	*	*	*tremolo	*	*	*	*	*	*	*	*	*	*	*	*	*	*	*
!LO:TX:t=P:problem:mixed beam	!	!LO:TX:t=P:problem:mixed beam	!	!	!	!	!	!	!	!	!	!	!	!	!	!	!	!	!	!	!	!	!	!	!	!	!	!	!	!	!	!
8BB-\L	.	8BB-\Lyy	.	2BB-/	.	.	2B-\	no-	.	4.g\	.	.	(8ff\	no-	.	2.ryy	(8B-'/L	.	(4.g/	.	8ff\)	.	2.ryy	.	2.ryy	.	2.ryy	2.ryy	2.ryy	2.ryy	2.ryy	2.ryy
!	!	!	!	!	!	!	!	!	!	!	!	!	!	!	!LO:DY:a	!	!	!	!	!	!LO:TX:a:t=|:problem	!	!	!	!	!	!	!	!	!	!	!
8B-/	.	8B-/yy	.	.	.	.	.	.	.	.	.	.	4ee-^\	.	[ >	.	8B-'/	.	.	.	(4ee-^\	[ >	.	.	.	.	.	.	.	.	.	.
8BB-\	.	8BB-\yy	.	.	.	.	.	.	.	.	.	.	.	.	.	.	8B-'/	.	.	.	.	.	.	.	.	.	.	.	.	.	.	.
8B-/	.	8B-/yy	.	.	.	.	.	.	.	8f\	.	.	8dd\)	.	.	.	8B-'/	.	8f/	.	8dd\	.	.	.	.	.	.	.	.	.	.	.
8BB-\	.	8BB-\yy	.	8BB-/	.	.	8B-\	-mi-	.	8en\	.	.	8cc#X\	-mi-	]	.	8B-'/	.	8en/L	.	8cc#X\L	]	.	.	.	.	.	.	.	.	.	.
8B-/J	.	8B-/Jyy	.	8BB-/	.	.	8B-\	-ne	.	8f\	.	.	8dd\	-ne	.	.	8B-'/J)	.	8f/J)	.	8dd\J)	.	.	.	.	.	.	.	.	.	.	.
*	*	*	*	*	*	*	*	*	*	*	*	*	*	*	*	*	*Xtremolo	*	*	*	*	*	*	*	*	*	*	*	*	*	*	*
!LO:PB:g=original	!	!LO:PB:g=original	!	!LO:LB:g=original	!	!	!LO:LB:g=original	!	!	!LO:LB:g=original	!	!	!LO:LB:g=original	!	!	!	!LO:LB:g=original	!	!LO:LB:g=original	!	!LO:LB:g=original	!	!	!	!	!	!	!	!	!	!	!
=11	=11	=11	=11	=11	=11	=11	=11	=11	=11	=11	=11	=11	=11	=11	=11	=11	=11	=11	=11	=11	=11	=11	=11	=11	=11	=11	=11	=11	=11	=11	=11	=11
!LO:TX:t=P:problem:mixed beam	!	!LO:TX:t=P:problem:mixed beam	!	!	!	!	!	!	!	!	!	!	!	!	!	!	!	!	!	!	!	!	!	!	!	!	!	!	!	!	!	!
8BB-\L	.	8BB-\Lyy	.	[2BB-/	Do-	.	[2e-\	.	.	[2g-X\	.	.	(4.ccn\	.	.	2.ryy	[2e-\	.	[>2g-X/	.	([4.ccn\	.	2.ryy	.	2.ryy	.	2.ryy	2.ryy	2.ryy	2.ryy	2.ryy	2.ryy
8B-/	.	8B-/yy	.	.	.	.	.	.	.	.	.	.	.	.	.	.	.	.	.	.	.	.	.	.	.	.	.	.	.	.	.	.
8BB-\	.	8BB-\yy	.	.	.	.	.	.	.	.	.	.	.	.	.	.	.	.	.	.	.	.	.	.	.	.	.	.	.	.	.	.
8B-/J	.	8B-/Jyy	.	.	.	.	.	.	.	.	.	.	32cc\LLL	.	.	.	.	.	.	.	32cc\LLL]	.	.	.	.	.	.	.	.	.	.	.
.	.	.	.	.	.	.	.	.	.	.	.	.	32dd\	.	.	.	.	.	.	.	32dd\	.	.	.	.	.	.	.	.	.	.	.
.	.	.	.	.	.	.	.	.	.	.	.	.	32cc\	.	.	.	.	.	.	.	32cc\	.	.	.	.	.	.	.	.	.	.	.
.	.	.	.	.	.	.	.	.	.	.	.	.	32bn\JJJ	.	.	.	.	.	.	.	32bn\JJJ	.	.	.	.	.	.	.	.	.	.	.
*Xtremolo	*	*Xtremolo	*	*	*	*	*	*	*	*	*	*	*	*	*	*	*	*	*	*	*	*	*	*	*	*	*	*	*	*	*	*
4BB-/	.	4BB-/yy	.	8.BB-/]	.	.	8.e-\]	.	.	8.g-\]	.	.	8.cc\)	.	.	.	8.e-\L]	.	8.g-/L]	.	8.cc\L)	.	.	.	.	.	.	.	.	.	.	.
!	!	!	!	!	!	!	!	!	!	!	!	!	!	!	!	!	!	!	!	!	!LO:TX:a:t=|:problem	!	!	!	!	!	!	!	!	!	!	!
.	.	.	.	16BB-/	-mi-	.	16f\	.	.	16f\	.	.	16dd\	.	.	.	16f\Jk	.	16f/Jk	.	16dd\Jk	.	.	.	.	.	.	.	.	.	.	.
=12	=12	=12	=12	=12	=12	=12	=12	=12	=12	=12	=12	=12	=12	=12	=12	=12	=12	=12	=12	=12	=12	=12	=12	=12	=12	=12	=12	=12	=12	=12	=12	=12
4BB-/	.	4BB-/yy	.	4BB-/	-ni	.	4d\	.	.	4f\	.	.	4b-X\	.	.	2.ryy	4d\	.	4f/	.	4b-X\	.	2.ryy	.	2.ryy	.	2.ryy	2.ryy	2.ryy	2.ryy	2.ryy	2.ryy
8r	.	8ryy	.	8r	.	.	8r	.	.	8r	.	.	8r	.	.	.	8r	.	8r	.	8r	.	.	.	.	.	.	.	.	.	.	.
(8B-\L	.	(8B-\Lyy	.	(8B-\L	in	.	4.d\	.	.	(8f\L	.	.	(16dd\LL	.	.	.	4d\	.	(8f/L	.	(8dd\L	.	.	.	.	.	.	.	.	.	.	.
.	<	.	.	.	.	.	.	.	.	.	.	.	32ee-\L	.	.	.	.	.	.	.	.	.	.	.	.	.	.	.	.	.	.	.
.	.	.	.	.	.	.	.	.	.	.	.	.	32dd\JJJ	.	.	.	.	.	.	.	.	.	.	.	.	.	.	.	.	.	.	.
!LO:SIC:s:v=An	!	!LO:SIC:s:v=An	!	!LO:SIC:s:v=An	!	!	!	!	!	!	!	!	!	!	!	!	!	!	!	!	!	!	!	!	!	!	!	!	!	!	!	!
8A-\	.	8A-\yy	.	8A-\	.	.	.	.	.	8f#X\	.	.	8cc\	.	.	.	.	.	8f#X/	.	8cc\	<	.	.	.	.	.	.	.	.	.	.
8G\J)	[[	8G\J)yy	.	8G\J)	.	.	.	.	.	8g\J)	.	.	8b-\)	.	.	.	8d\	.	8g/J)	.	8b-\J)	.	.	.	.	.	.	.	.	.	.	.
=13	=13	=13	=13	=13	=13	=13	=13	=13	=13	=13	=13	=13	=13	=13	=13	=13	=13	=13	=13	=13	=13	=13	=13	=13	=13	=13	=13	=13	=13	=13	=13	=13
!	!LO:DY:rj	!	!LO:DY:b	!	!	!	!	!	!	!	!	!	!	!	!LO:DY:rj:a	!	!	!	!	!LO:DY:rj	!	!	!	!	!	!	!	!	!	!	!	!
4c\	f	4c\yy	f	4c\	no-	.	4c\	.	.	8.fn\L	.	.	(8.an\L	.	f	2.ryy	4c\	.	4fn/	f	4an/	[ f	2.ryy	.	2.ryy	.	2.ryy	2.ryy	2.ryy	2.ryy	2.ryy	2.ryy
.	.	.	.	.	.	.	.	.	.	16an\Jk	.	.	16cc\Jk)	.	.	.	.	.	.	.	.	.	.	.	.	.	.	.	.	.	.	.
4r	.	4ryy	.	8.c\	-mi-	.	8.c\	.	.	8.a\	.	.	8.gg\	.	.	.	4r	.	4r	.	4r	.	.	.	.	.	.	.	.	.	.	.
.	p	.	p	16c\	-ne	.	16c\	.	.	16a\	.	.	16ff\	.	.	.	.	p	.	.	.	p	.	.	.	.	.	.	.	.	.	.
(4C/	.	(4C/yy	.	8C/	do-	.	8B-\	.	.	8g\	.	.	(16een\LL	.	.	.	(4c/ 4G/	.	(4B-/	.	(4en^/	.	.	.	.	.	.	.	.	.	.	.
.	.	.	.	.	.	.	.	.	.	.	.	.	16cc\JJ)	.	.	.	.	.	.	.	.	.	.	.	.	.	.	.	.	.	.	.
.	.	.	.	8C/	-mi-	.	8B-\	.	.	8en\	.	.	(16b-\LL	.	.	.	.	.	.	.	.	.	.	.	.	.	.	.	.	.	.	.
.	.	.	.	.	.	.	.	.	.	.	.	.	16g\JJ)	.	.	.	.	.	.	.	.	.	.	.	.	.	.	.	.	.	.	.
=14	=14	=14	=14	=14	=14	=14	=14	=14	=14	=14	=14	=14	=14	=14	=14	=14	=14	=14	=14	=14	=14	=14	=14	=14	=14	=14	=14	=14	=14	=14	=14	=14
8D/)	.	8D/)yy	.	8D\	-ni	.	8An/	.	.	8f\	.	.	8f/	.	.	2.ryy	8d/ 8F/)	.	8An/)	.	8f/)	.	2.ryy	.	2.ryy	.	2.ryy	2.ryy	2.ryy	2.ryy	2.ryy	2.ryy
!	!	!	!	!	!	!	!	!	!	!LO:SIC:s:v=an	!	!	!	!	!	!	!	!	!	!	!	!	!	!	!	!	!	!	!	!	!	!
4D\	.	4D\yy	f	4D\	.	.	2A/	.	.	4a-\	.	.	4ff\	.	.	.	[4An/	.	4an/	.	4ff\	.	.	.	.	.	.	.	.	.	.	.
.	.	.	.	.	.	.	.	.	.	.	.	.	.	.	.	.	.	.	.	.	.	f	.	.	.	.	.	.	.	.	.	.
!	!	!	!	!	!	!LO:DY:a	!	!	!	!	!	!	!	!	!LO:DY:a	!	!	!	!	!	!	!	!	!	!	!	!	!	!	!	!	!
.	.	.	.	.	.	f	.	.	.	.	.	.	.	.	f	.	.	.	.	.	.	.	.	.	.	.	.	.	.	.	.	.
(8D\L	.	(8D\Lyy	.	(8D\L	in	.	.	.	.	(8an\L	.	.	(16ff\LL	.	.	.	4An/]	.	(8an/L	.	(8ff\L	.	.	.	.	.	.	.	.	.	.	.
.	.	.	.	.	.	.	.	.	.	.	.	.	32gg\L	.	.	.	.	.	.	.	.	.	.	.	.	.	.	.	.	.	.	.
.	.	.	.	.	.	.	.	.	.	.	.	.	32ff\JJJ	.	.	.	.	.	.	.	.	.	.	.	.	.	.	.	.	.	.	.
8En\	.	8En\yy	.	8En\	.	.	.	.	.	8g\	.	.	8cc#X\L	.	.	.	.	.	8g/	.	8cc#X\	.	.	.	.	.	.	.	.	.	.	.
8F\J)	.	8F\J)yy	.	8F\J)	.	.	8A/	.	.	8f\J)	.	.	8dd\J)	.	.	.	8A/	.	8f/J)	.	8dd\J)	.	.	.	.	.	.	.	.	.	.	.
!LO:PB:g=original	!	!LO:PB:g=original	!	!LO:PB:g=original	!	!	!LO:PB:g=original	!	!	!LO:PB:g=original	!	!	!LO:PB:g=original	!	!	!	!LO:PB:g=original	!	!LO:PB:g=original	!	!LO:PB:g=original	!	!	!	!	!	!	!	!	!	!	!
=15	=15	=15	=15	=15	=15	=15	=15	=15	=15	=15	=15	=15	=15	=15	=15	=15	=15	=15	=15	=15	=15	=15	=15	=15	=15	=15	=15	=15	=15	=15	=15	=15
!	!	!LO:TX:t=P:problem:t. 15-17 w vc zapisane jako unisono cb, ukryte	!	!	!	!	!	!	!	!	!	!	!	!	!	!	!	!	!	!	!	!	!	!	!	!	!	!	!	!	!	!
[2G\	.	[2G\yy	.	2G\	.	.	2B-\	.	.	2d\	.	.	(4ccn\	no-	.	2.ryy	[2B-\	.	[2d/	.	(4cc\	.	2.ryy	.	2.ryy	.	2.ryy	2.ryy	2.ryy	2.ryy	2.ryy	2.ryy
.	.	.	.	.	.	.	.	.	.	.	.	.	16cc\LL	.	.	.	.	.	.	.	16cc\LL	.	.	.	.	.	.	.	.	.	.	.
.	.	.	.	.	.	.	.	.	.	.	.	.	16b-\	.	.	.	.	.	.	.	16b-\	.	.	.	.	.	.	.	.	.	.	.
.	.	.	.	.	.	.	.	.	.	.	.	.	16an\	.	.	.	.	.	.	.	16an\	.	.	.	.	.	.	.	.	.	.	.
.	.	.	.	.	.	.	.	.	.	.	.	.	16b-\JJ)	.	.	.	.	.	.	.	16b-\JJ	.	.	.	.	.	.	.	.	.	.	.
8.G\L]	.	8.G\L]yy	.	8.G\	.	.	8.B-\	.	.	8.d\	.	.	8.d/	-mi-	.	.	8.B-\L]	.	8.d/L]	.	8.d/L)	.	.	.	.	.	.	.	.	.	.	.
!	!	!	!	!	!	!	!	!	!	!	!	!	!	!	!	!	!LO:TX:a:t=|:problem	!	!LO:TX:b:t=|:problem	!	!LO:TX:b:t=|:problem	!	!	!	!	!	!	!	!	!	!	!
16G-X\Jk	.	16G-X\Jkyy	.	16G-X\	.	.	16B-\	.	.	16c\	.	.	16en/	-ne	.	.	16B-\Jk	.	16c/Jk	.	16en/Jk	.	.	.	.	.	.	.	.	.	.	.
=16	=16	=16	=16	=16	=16	=16	=16	=16	=16	=16	=16	=16	=16	=16	=16	=16	=16	=16	=16	=16	=16	=16	=16	=16	=16	=16	=16	=16	=16	=16	=16	=16
(4F\	.	(4F\yy	.	(4F\	.	.	(4An\	.	.	[2c\	.	.	(>8.f/L	do-	.	2.ryy	(4An/	.	[2c/	.	8.f/L	.	2.ryy	.	2.ryy	.	2.ryy	2.ryy	2.ryy	2.ryy	2.ryy	2.ryy
.	.	.	.	.	.	.	.	.	.	.	.	.	16c/Jk	.	.	.	.	.	.	.	16c/Jk	.	.	.	.	.	.	.	.	.	.	.
4..C/)	.	4..C/)yy	.	4..C/)	.	.	4c\	.	.	.	.	.	(4..an/	.	.	.	4c/	.	.	.	(4..an/	.	.	.	.	.	.	.	.	.	.	.
.	.	.	.	.	.	.	8.B-\)	.	.	8.c\L]	.	.	.	.	.	.	8.B-/L)	.	8.c/L]	.	.	.	.	.	.	.	.	.	.	.	.	.
!	!	!	!	!	!	!	!	!	!	!LO:TX:a:t=|:problem	!	!	!	!	!	!	!	!	!	!	!	!	!	!	!	!	!	!	!	!	!	!
16C/	.	16C/yy	.	16C/	.	.	16B-\	.	.	16en\Jk	.	.	16g/))	mi-	.	.	16B-/Jk	.	16en/Jk	.	16g/	.	.	.	.	.	.	.	.	.	.	.
=17	=17	=17	=17	=17	=17	=17	=17	=17	=17	=17	=17	=17	=17	=17	=17	=17	=17	=17	=17	=17	=17	=17	=17	=17	=17	=17	=17	=17	=17	=17	=17	=17
4F\	.	4F\yy	.	4F\	.	.	4An\	.	.	4f\	.	.	4f/	-ni	.	2.ryy	4An/	.	4f/	.	4f/)	.	2.ryy	.	2.ryy	.	2.ryy	2.ryy	2.ryy	2.ryy	2.ryy	2.ryy
4r	.	4ryy	.	4r	.	.	8r	.	.	4r	.	.	8r	.	.	.	4r	.	4r	.	4r	.	.	.	.	.	.	.	.	.	.	.
.	.	.	.	.	.	.	(8F/L	.	.	.	.	.	(8f\L	qui	.	.	.	.	.	.	.	.	.	.	.	.	.	.	.	.	.	.
4r	.	4ryy	.	4r	.	.	8A/	.	.	4r	.	.	8an\	.	.	.	4r	.	4r	.	4r	.	.	.	.	.	.	.	.	.	.	.
.	.	.	.	.	.	.	8c/J)	.	.	.	.	.	8cc\J)	.	.	.	.	.	.	.	.	.	.	.	.	.	.	.	.	.	.	.
=18	=18	=18	=18	=18	=18	=18	=18	=18	=18	=18	=18	=18	=18	=18	=18	=18	=18	=18	=18	=18	=18	=18	=18	=18	=18	=18	=18	=18	=18	=18	=18	=18
2.r	.	2.r	.	2.r	.	.	(4.e-\	.	.	2.r	.	.	(4.ee-\	ve-	.	2.ryy	2.r	.	2.r	.	2.r	.	2.ryy	.	2.ryy	.	2.ryy	2.ryy	2.ryy	2.ryy	2.ryy	2.ryy
.	.	.	.	.	.	.	8g-X\	.	.	.	.	.	8gg-X\	.	.	.	.	.	.	.	.	.	.	.	.	.	.	.	.	.	.	.
.	.	.	.	.	.	.	8c\L	.	.	.	.	.	8cc\L	.	.	.	.	.	.	.	.	.	.	.	.	.	.	.	.	.	.	.
.	.	.	.	.	.	.	8e-\J)	.	.	.	.	.	8ee-\J)	.	.	.	.	.	.	.	.	.	.	.	.	.	.	.	.	.	.	.
=19	=19	=19	=19	=19	=19	=19	=19	=19	=19	=19	=19	=19	=19	=19	=19	=19	=19	=19	=19	=19	=19	=19	=19	=19	=19	=19	=19	=19	=19	=19	=19	=19
2.r	.	4r	.	4r	.	.	4An\	.	.	4r	.	.	4an\	-nit	.	2.ryy	4r	.	4r	.	4r	.	2.ryy	.	2.ryy	.	2.ryy	2.ryy	2.ryy	2.ryy	2.ryy	2.ryy
.	.	8r	p	8r	.	.	8r	.	.	8r	.	.	8r	.	.	.	8r	.	8r	.	8r	.	.	.	.	.	.	.	.	.	.	.
!	!	!	!	!	!	!	!	!	!	!	!	!	!	!	!	!	!	!	!	!LO:DY:a	!	!	!	!	!	!	!	!	!	!	!	!
.	.	.	.	.	.	.	.	.	.	.	.	.	.	.	.	.	.	.	.	p	.	p	.	.	.	.	.	.	.	.	.	.
!	!	!	!	!LO:N:vis=2	!	!	!	!	!	!	!	!	!	!	!	!	!	!	!	!	!	!	!	!	!	!	!	!	!	!	!	!
.	.	(8e-\L	.	4.r	.	.	(8e-\L	qui	.	(8g-X\L	.	.	(8a\L	qui	.	.	(8e-\L	.	(8g-X/L	.	(8an/L	.	.	.	.	.	.	.	.	.	.	.
.	.	8d\	.	.	.	.	8d\	.	.	8f\	.	.	8b-\	.	.	.	8d\	.	8f/	.	8b-/	.	.	.	.	.	.	.	.	.	.	.
.	.	8An\J)	.	.	.	.	8An\J)	.	.	8e-\J)	.	.	8cc\J)	.	.	.	8An\J)	.	8e-/J)	.	8cc/J)	.	.	.	.	.	.	.	.	.	.	.
!LO:LB:g=original	!	!LO:LB:g=original	!	!LO:PB:g=original	!	!	!LO:LB:g=original	!	!	!LO:LB:g=original	!	!	!LO:LB:g=original	!	!	!	!LO:LB:g=original	!	!LO:LB:g=original	!	!LO:LB:g=original	!	!	!	!	!	!	!	!	!	!	!
=20	=20	=20	=20	=20	=20	=20	=20	=20	=20	=20	=20	=20	=20	=20	=20	=20	=20	=20	=20	=20	=20	=20	=20	=20	=20	=20	=20	=20	=20	=20	=20	=20
4r	.	(4B-\	.	4r	.	.	(4B-\	.	.	4f\	.	.	(4dd\	ve-	.	2.ryy	(4B-/	.	4f/	.	(4dd\	.	2.ryy	.	2.ryy	.	2.ryy	2.ryy	2.ryy	2.ryy	2.ryy	2.ryy
8r	.	8d\)	.	8r	.	.	8d\)	.	.	8f\	.	.	8b-\)	-nit	.	.	8d\)	.	8f/	.	8b-\)	.	.	.	.	.	.	.	.	.	.	.
(8B-\L	<	(8B-\L	.	(8B-\L	.	.	(4f\	.	.	(8b-\L	.	.	(8dd\L	in	.	.	(4f\	.	(8b-/L	<	(8dd\L	<	.	.	.	.	.	.	.	.	.	.
8An\	.	8An\	.	8An\	.	.	.	.	.	8cc\	.	.	8ee-\	.	.	.	.	.	8cc/	.	8ee-\	.	.	.	.	.	.	.	.	.	.	.
8A-X\J	.	8A-X\J	.	8A-X\J)	.	.	8d\)	.	.	8b-\J)	.	.	8ff\J)	.	.	.	8d\)	.	8b-/J)	.	8ff\J)	.	.	.	.	.	.	.	.	.	.	.
=21	=21	=21	=21	=21	=21	=21	=21	=21	=21	=21	=21	=21	=21	=21	=21	=21	=21	=21	=21	=21	=21	=21	=21	=21	=21	=21	=21	=21	=21	=21	=21	=21
8G\L)	[	8G\L)	.	2G\	.	.	2e-\	.	.	2b-\	.	<	((16ff\LL	no-	.	2.ryy	8e-\L	.	8b-/L	.	(16ff\LL	[	2.ryy	.	2.ryy	.	2.ryy	2.ryy	2.ryy	2.ryy	2.ryy	2.ryy
.	.	.	.	.	.	.	.	.	.	.	.	.	16ee-\JJ)	.	.	.	.	.	.	.	16ee-\JJ)	.	.	.	.	.	.	.	.	.	.	.
.	.	.	.	.	.	.	.	.	.	.	.	.	.	.	.	.	.	.	.	.	.	sf	.	.	.	.	.	.	.	.	.	.
8G\J	sf	8G\J	sf	.	.	.	.	.	.	.	.	[ >	4bb-^<\	.	.	.	8g\J 8B-\	.	8b-/J 8e-/	[ sf	8bb-\ 8b-\ 8e-\	.	.	.	.	.	.	.	.	.	.	.
4r	.	4r	.	.	.	.	.	.	.	.	.	.	.	.	.	.	4r	.	4r	.	4r	.	.	.	.	.	.	.	.	.	.	.
.	.	.	.	.	.	.	.	.	.	.	.	.	16aa-\LL	.	.	.	.	.	.	.	.	.	.	.	.	.	.	.	.	.	.	.
.	p	.	.	.	.	.	.	.	.	.	.	.	16gg\JJ)	.	.	.	.	p	.	.	.	p	.	.	.	.	.	.	.	.	.	.
4AA-/	.	4AA-/	.	8A-\	.	.	8c\	.	.	8cc\	.	]	(16ff\LL	-mi-	.	.	(4A-/	.	(4c/	.	(4f/	.	.	.	.	.	.	.	.	.	.	.
.	.	.	.	.	.	.	.	.	.	.	.	.	16ee-\JJ)	.	.	.	.	.	.	.	.	.	.	.	.	.	.	.	.	.	.	.
.	.	.	.	8A-\	.	.	8c\	.	.	(16b-\LL	.	.	(16dd\LL	-ne	.	.	.	.	.	.	.	.	.	.	.	.	.	.	.	.	.	.
.	.	.	.	.	.	.	.	.	.	16a-\JJ)	.	.	16cc\JJ)	.	.	.	.	.	.	.	.	.	.	.	.	.	.	.	.	.	.	.
=22	=22	=22	=22	=22	=22	=22	=22	=22	=22	=22	=22	=22	=22	=22	=22	=22	=22	=22	=22	=22	=22	=22	=22	=22	=22	=22	=22	=22	=22	=22	=22	=22
8BB-/	.	8BB-/	.	(2B-\	.	.	(2e-\	.	.	8g\L	.	.	(8b-\L	do-	.	2.ryy	8B-/)	.	8e-/)	.	8g/)	.	2.ryy	.	2.ryy	.	2.ryy	2.ryy	2.ryy	2.ryy	2.ryy	2.ryy
8r	.	8r	.	.	.	.	.	.	.	16f#X\L	.	.	16an\L	.	.	.	8r	.	8r	.	8r	.	.	.	.	.	.	.	.	.	.	.
.	.	.	.	.	.	.	.	.	.	16g\JJ	.	.	16b-\JJ	.	.	.	.	.	.	.	.	.	.	.	.	.	.	.	.	.	.	.
4r	.	4r	.	.	.	.	.	.	.	4..b-\	.	.	4..gg\)	.	.	.	4r	.	4r	.	4r	.	.	.	.	.	.	.	.	.	.	.
(4BB-/	.	(4BB-/	.	8.BB-/)	.	.	8.d\)	.	.	.	.	.	.	.	.	.	(4B-/ 4F/	.	(>4A-/	.	(4d/	.	.	.	.	.	.	.	.	.	.	.
.	.	.	.	16BB-/	.	.	16d\	.	.	16a-X\	.	.	16ff\	-mi-	.	.	.	.	.	.	.	.	.	.	.	.	.	.	.	.	.	.
=23	=23	=23	=23	=23	=23	=23	=23	=23	=23	=23	=23	=23	=23	=23	=23	=23	=23	=23	=23	=23	=23	=23	=23	=23	=23	=23	=23	=23	=23	=23	=23	=23
!	!	!	!	!LO:SIC:s:v=E	!	!	!	!	!	!	!	!	!	!	!	!	!	!	!	!	!	!	!	!	!	!	!	!	!	!	!	!
4E-\)	.	4E-\)	.	4C/	.	.	4e-\	.	.	4g\	.	.	4ee-\	-ni	.	2.ryy	4B-/ 4E-/)	.	4G/)	.	4e-/)	.	2.ryy	.	2.ryy	.	2.ryy	2.ryy	2.ryy	2.ryy	2.ryy	2.ryy
4r	.	4r	.	8r	.	.	8r	.	.	8r	.	.	8r	.	.	.	4r	.	4r	.	4r	.	.	.	.	.	.	.	.	.	.	.
!	!	!	!	!	!	!	!	!	!	!	!	!	!	!	!LO:DY:a	!	!	!	!	!	!	!	!	!	!	!	!	!	!	!	!	!
.	.	.	.	8c\	.	.	8e-\	.	.	8g\	.	.	8g/	in	p <	.	.	.	.	.	.	.	.	.	.	.	.	.	.	.	.	.
4r	.	4r	.	8c\	.	.	8e-\	.	.	8g\	.	.	8g/	no-	.	.	4r	.	4r	.	4r	.	.	.	.	.	.	.	.	.	.	.
.	.	.	.	8c\	.	.	8e-\	.	.	8g\	.	.	8g/	-mi-	[[	.	.	.	.	.	.	.	.	.	.	.	.	.	.	.	.	.
!LO:PB:g=original	!	!	!	!LO:PB:g=original	!	!	!LO:PB:g=original	!	!	!LO:PB:g=original	!	!	!LO:PB:g=original	!	!	!	!LO:PB:g=original	!	!LO:PB:g=original	!	!LO:PB:g=original	!	!	!	!	!	!	!	!	!	!	!
=24	=24	=24	=24	=24	=24	=24	=24	=24	=24	=24	=24	=24	=24	=24	=24	=24	=24	=24	=24	=24	=24	=24	=24	=24	=24	=24	=24	=24	=24	=24	=24	=24
!	!LO:DY:rj	!LO:TX:t=P:problem:t. 24-27 w vc zapisane jako unisono cb, ukryte	!LO:DY:rj	!	!	!	!	!	!	!	!	!	!	!	!	!	!	!	!	!	!	!LO:DY:rj	!	!	!	!	!	!	!	!	!	!
2.F\	p	2.F\yy	p	2F\	.	.	2c\	.	.	2e-\	.	.	(8an\L	-ne	.	2.ryy	2.c/	.	(2.e-/	.	(2.an/	p	2.ryy	.	2.ryy	.	2.ryy	2.ryy	2.ryy	2.ryy	2.ryy	2.ryy
.	.	.	.	.	.	.	.	.	.	.	.	.	16cc\L	.	.	.	.	.	.	.	.	.	.	.	.	.	.	.	.	.	.	.
.	.	.	.	.	.	.	.	.	.	.	.	.	16ee-\JJ	.	.	.	.	.	.	.	.	.	.	.	.	.	.	.	.	.	.	.
.	.	.	.	.	.	.	.	.	.	.	.	.	8.gg\L	.	.	.	.	.	.	.	.	.	.	.	.	.	.	.	.	.	.	.
.	.	.	.	.	.	.	.	.	.	.	.	.	16gg-X\Jk)	.	.	.	.	.	.	.	.	.	.	.	.	.	.	.	.	.	.	.
.	.	.	.	8.F\	.	.	8.c\	.	.	8.e-\	.	.	(16ff\LL	do-	.	.	.	.	.	.	.	.	.	.	.	.	.	.	.	.	.	.
.	.	.	.	.	.	.	.	.	.	.	.	.	16ee-\	.	.	.	.	.	.	.	.	.	.	.	.	.	.	.	.	.	.	.
.	.	.	.	.	.	.	.	.	.	.	.	.	16g\JJ)	.	.	.	.	.	.	.	.	.	.	.	.	.	.	.	.	.	.	.
.	.	.	.	16F\	.	.	16c\	.	.	16e-\	.	.	16a\	-mi-	.	.	.	.	.	.	.	.	.	.	.	.	.	.	.	.	.	.
=25	=25	=25	=25	=25	=25	=25	=25	=25	=25	=25	=25	=25	=25	=25	=25	=25	=25	=25	=25	=25	=25	=25	=25	=25	=25	=25	=25	=25	=25	=25	=25	=25
8BB-/	.	8BB-/yy	.	8B-\	.	.	8B-\	.	.	8d\	.	.	(8b-\	-ni	.	2.ryy	8B-/	.	8d/)	.	8b-/)	.	2.ryy	.	2.ryy	.	2.ryy	2.ryy	2.ryy	2.ryy	2.ryy	2.ryy
8r	.	8ryy	.	8r	.	.	8r	.	.	8r	.	.	4b-^\	Be-	.	.	8r	.	8r	.	8r	.	.	.	.	.	.	.	.	.	.	.
4r	.	4ryy	.	4r	.	.	(4c\	.	.	(4e-\	.	.	.	.	.	.	4r	.	4r	.	4r	.	.	.	.	.	.	.	.	.	.	.
.	.	.	.	.	.	.	.	.	.	.	.	.	4an^\	.	.	.	.	.	.	.	.	.	.	.	.	.	.	.	.	.	.	.
4r	.	4ryy	.	4r	.	.	4d\)	.	.	4f\)	.	.	.	.	.	.	4r	.	4r	.	4r	.	.	.	.	.	.	.	.	.	.	.
.	.	.	.	.	.	.	.	.	.	.	.	.	8a-X\	.	.	.	.	.	.	.	.	.	.	.	.	.	.	.	.	.	.	.
=26	=26	=26	=26	=26	=26	=26	=26	=26	=26	=26	=26	=26	=26	=26	=26	=26	=26	=26	=26	=26	=26	=26	=26	=26	=26	=26	=26	=26	=26	=26	=26	=26
*	*	*	*	*	*	*	*	*	*	*	*	*	*	*	*	*	*	*	*^	*	*	*	*	*	*	*	*	*	*	*	*	*
!	!	!	!	!	!	!	!	!	!	!	!	!	!	!	!	!	!	!	!	!	!	!	!LO:DY:rj	!	!	!	!	!	!	!	!	!	!
.	.	.	.	.	.	.	.	.	.	.	.	.	.	.	.	.	.	.	.	.	.	(16qqe-/LL	f	.	.	.	.	.	.	.	.	.	.
!	!	!	!	!	!	!	!	!	!	!	!	!	!	!	!LO:DY:a	!	!	!	!	!	!	!	!	!	!	!	!	!	!	!	!	!	!
.	.	.	.	.	.	.	.	.	.	8qg/	.	.	(8qg/)	.	f	.	.	.	.	.	.	16qqb-/JJ	.	.	.	.	.	.	.	.	.	.	.
!	!LO:DY:rj:a	!	!LO:DY:rj:a	!	!	!LO:DY:rj:a	!	!	!LO:DY:rj:a	!	!	!	!	!	!	!	!	!	!	!	!LO:DY:rj	!	!	!	!	!	!	!	!	!	!	!	!
2E-\	f	2E-\yy	f	2E-\	.	f	2e-\	.	f	2b-\	.	.	2gg\)	.	.	2.ryy	2g\ 2B-\	.	[2.b-/	2e-\	f	2gg\)	.	2.ryy	.	2.ryy	.	2.ryy	2.ryy	2.ryy	2.ryy	2.ryy	2.ryy
!	!	!	!	!	!	!	!	!	!	!	!	!	!	!	!	!	!	!	!	!	!	!LO:TX:a:t=|:problem	!	!	!	!	!	!	!	!	!	!	!
(4A-\	.	(4A-\yy	.	4A-\	.	.	4f\	.	.	4b-\	.	.	4b-\	-ne-	.	.	(4a-\ 4B-\	.	.	4f\	.	(4dd\	.	.	.	.	.	.	.	.	.	.	.
*	*	*	*	*	*	*	*	*	*	*	*	*	*	*	*	*	*	*	*v	*v	*	*	*	*	*	*	*	*	*	*	*	*	*
=27	=27	=27	=27	=27	=27	=27	=27	=27	=27	=27	=27	=27	=27	=27	=27	=27	=27	=27	=27	=27	=27	=27	=27	=27	=27	=27	=27	=27	=27	=27	=27	=27
!	!	!	!	!	!	!	!	!	!	!	!	!	!	!	!LO:DY:a	!	!	!	!	!	!LO:TX:a:t=|:problem	!	!	!	!	!	!	!	!	!	!	!
4G\)	.	4G\)yy	.	4G\	.	.	4e-\	.	.	4b-\	.	.	4ff\	-dic-	>	2.ryy	4g\ 4B-\)	.	4b-\] 4e-\	.	4ff\)	.	2.ryy	.	2.ryy	.	2.ryy	2.ryy	2.ryy	2.ryy	2.ryy	2.ryy
4.G\	.	4.G\yy	.	4.G\	.	.	4.e-\	.	.	4.b-\	.	.	4.ee-\	-tus	.	.	4.g\ 4.B-\	.	4.b-\	.	(4.ee-\	.	.	.	.	.	.	.	.	.	.	.
8A-\	.	8A-\yy	.	8A-\	.	.	8e-\	.	.	8a-\	.	.	8cc\	qui	]]	.	8e-\	.	8a-/	.	8cc\)	.	.	.	.	.	.	.	.	.	.	.
!LO:LB:g=original	!	!LO:LB:g=original	!	!LO:PB:g=original	!	!	!	!	!	!LO:LB:g=original	!	!	!LO:LB:g=original	!	!	!	!	!	!	!	!LO:LB:g=original	!	!	!	!	!	!	!	!	!	!	!
=28	=28	=28	=28	=28	=28	=28	=28	=28	=28	=28	=28	=28	=28	=28	=28	=28	=28	=28	=28	=28	=28	=28	=28	=28	=28	=28	=28	=28	=28	=28	=28	=28
!	!	!LO:TX:t=P:problem:t. 28-31 w vc zapisane jako unisono cb, ukryte	!	!	!	!	!	!	!	!	!	!	!	!	!	!	!LO:DY:rj	!	!	!LO:DY:a	!	!LO:DY:rj:a	!	!	!	!	!	!	!	!	!	!
2B-\	.	2B-\yy	.	(2B-\	.	.	(2e-\	.	.	(4g\	.	.	(4b-\	ve-	.	2.ryy	(2e-\	.	(4g/	p	(4b-/	p	2.ryy	.	2.ryy	.	2.ryy	2.ryy	2.ryy	2.ryy	2.ryy	2.ryy
.	.	.	.	.	.	.	.	.	.	2f\)	.	.	2a-\)	.	.	.	.	.	2f/)	.	2a-/)	.	.	.	.	.	.	.	.	.	.	.
(8BB-/L	.	(8BB-/Lyy	.	8B-\L	.	.	4d\)	.	.	.	.	.	.	.	.	.	4d\)	.	.	.	.	.	.	.	.	.	.	.	.	.	.	.
8BBn/J	.	8BBn/Jyy	.	8Bn\J)	.	.	.	.	.	.	.	.	.	.	.	.	.	.	.	.	.	.	.	.	.	.	.	.	.	.	.	.
=29	=29	=29	=29	=29	=29	=29	=29	=29	=29	=29	=29	=29	=29	=29	=29	=29	=29	=29	=29	=29	=29	=29	=29	=29	=29	=29	=29	=29	=29	=29	=29	=29
4C/)	.	4C/)yy	.	4c\	.	.	4e-\	.	.	4e-\	.	.	4g\	-nit	.	2.ryy	4e-\	.	4e-/	.	4g/	.	2.ryy	.	2.ryy	.	2.ryy	2.ryy	2.ryy	2.ryy	2.ryy	2.ryy
!	!	!	!	!	!	!	!	!	!	!	!	!	!	!	!LO:DY:a	!	!	!	!	!	!	!	!	!	!	!	!	!	!	!	!	!
4r	.	4ryy	.	8r	.	.	8r	.	.	8r	.	.	8r	.	p	.	4r	.	4r	.	4r	.	.	.	.	.	.	.	.	.	.	.
.	.	.	.	8c\	in	.	8c\	.	.	8e-\	.	.	8g\	in	<	.	.	.	.	.	.	.	.	.	.	.	.	.	.	.	.	.
4r	.	4ryy	.	8Bn\	no-	.	8d\	.	.	8f\	.	.	8g\	no-	.	.	4r	.	4r	.	4r	.	.	.	.	.	.	.	.	.	.	.
.	.	.	.	8c\	-mi-	.	8c\	.	.	8e-\	.	.	8g\	-mi-	[[	.	.	.	.	.	.	.	.	.	.	.	.	.	.	.	.	.
=30	=30	=30	=30	=30	=30	=30	=30	=30	=30	=30	=30	=30	=30	=30	=30	=30	=30	=30	=30	=30	=30	=30	=30	=30	=30	=30	=30	=30	=30	=30	=30	=30
4r	.	4ryy	.	4A-\	-ne	.	4c\	.	.	4c\	.	.	((16g/LL	-ne	.	2.ryy	4r	.	4r	.	4r	.	2.ryy	.	2.ryy	.	2.ryy	2.ryy	2.ryy	2.ryy	2.ryy	2.ryy
.	.	.	.	.	.	.	.	.	.	.	.	.	16f/JJ)	.	.	.	.	.	.	.	.	.	.	.	.	.	.	.	.	.	.	.
.	.	.	.	.	.	.	.	.	.	.	.	.	4aa-\	.	>	.	.	.	.	.	.	.	.	.	.	.	.	.	.	.	.	.
4r	.	4ryy	.	4r	.	.	4r	.	.	4r	.	.	.	.	.	.	4r	.	4r	.	4r	.	.	.	.	.	.	.	.	.	.	.
.	.	.	.	.	.	.	.	.	.	.	.	.	8gg\)	.	]	.	.	.	.	.	.	.	.	.	.	.	.	.	.	.	.	.
8r	.	8ryy	.	8r	.	.	8r	.	.	8r	.	.	(16ff\LL	.	.	.	8r	.	8r	.	8r	.	.	.	.	.	.	.	.	.	.	.
.	.	.	.	.	.	.	.	.	.	.	.	.	16ee-\JJ)	.	.	.	.	.	.	.	.	.	.	.	.	.	.	.	.	.	.	.
(8An\	.	(8An\yy	.	8An\	in	.	8e-^\	.	.	8g-X^<\	.	.	(16dd\LL	in	.	.	[8e-\ 8c^\	.	[>8e-^/	.	8gn^/	.	.	.	.	.	.	.	.	.	.	.
.	.	.	.	.	.	.	.	.	.	.	.	.	16cc\JJ)	.	.	.	.	.	.	.	.	.	.	.	.	.	.	.	.	.	.	.
=31	=31	=31	=31	=31	=31	=31	=31	=31	=31	=31	=31	=31	=31	=31	=31	=31	=31	=31	=31	=31	=31	=31	=31	=31	=31	=31	=31	=31	=31	=31	=31	=31
8B-\)	.	8B-\)yy	.	8B-\	no-	.	8e-\	.	.	8gn\	.	.	8b-\	no-	.	2.ryy	8e-\] 8B-\	.	8e-/]	.	8gn/	.	2.ryy	.	2.ryy	.	2.ryy	2.ryy	2.ryy	2.ryy	2.ryy	2.ryy
8r	.	8ryy	.	4B-\	-mi-	.	4e-\	.	.	4g\	.	.	4ee-^<\	-mi-	.	.	8r	.	8r	.	8r	.	.	.	.	.	.	.	.	.	.	.
4r	.	4ryy	.	.	.	.	.	.	.	.	.	.	.	.	.	.	4r	.	4r	.	4r	.	.	.	.	.	.	.	.	.	.	.
.	.	.	.	8B-\	-ne	.	8B-\	.	.	8e-\	.	.	8g\	-ne	.	.	.	.	.	.	.	.	.	.	.	.	.	.	.	.	.	.
4BB-/	.	4BB-/yy	.	8.BB-/	do-	.	8.A-/	.	.	8.d\	.	.	(16cc\LL	do-	.	.	4B-/ 4F/	.	(4A-/	.	(4d/	.	.	.	.	.	.	.	.	.	.	.
.	.	.	.	.	.	.	.	.	.	.	.	.	16b-\	.	.	.	.	.	.	.	.	.	.	.	.	.	.	.	.	.	.	.
.	.	.	.	.	.	.	.	.	.	.	.	.	16a-\JJ)	.	.	.	.	.	.	.	.	.	.	.	.	.	.	.	.	.	.	.
.	.	.	.	16BB-/	-mi-	.	16A-/	.	.	16d\	.	.	16f/	-mi-	.	.	.	.	.	.	.	.	.	.	.	.	.	.	.	.	.	.
!LO:PB:g=original	!	!LO:PB:g=original	!	!LO:PB:g=original	!	!	!LO:PB:g=original	!	!	!LO:PB:g=original	!	!	!LO:PB:g=original	!	!	!	!LO:PB:g=original	!	!LO:PB:g=original	!	!LO:PB:g=original	!	!	!	!	!	!	!	!	!	!	!
=32	=32	=32	=32	=32	=32	=32	=32	=32	=32	=32	=32	=32	=32	=32	=32	=32	=32	=32	=32	=32	=32	=32	=32	=32	=32	=32	=32	=32	=32	=32	=32	=32
!	!	!LO:TX:t=P:problem:t. 32-34 w vc zapisane jako unisono cb, ukryte	!	!	!	!	!	!	!	!	!	!	!	!	!	!	!	!	!	!	!	!	!	!	!	!	!	!	!	!	!	!
4E-\	.	4E-\yy	.	4E-\	-ni	.	4G/	.	.	4g\	.	.	4e-/	-ni	.	2.ryy	4B-/ 4E-/	.	4G/)	.	4e-/)	.	2.ryy	.	2.ryy	.	2.ryy	2.ryy	2.ryy	2.ryy	2.ryy	2.ryy
4r	.	4ryy	.	8.r	.	.	8.r	.	.	4r	.	.	4r	.	.	.	4r	.	4r	.	4r	.	.	.	.	.	.	.	.	.	.	.
.	.	.	.	16B-\	in	.	16d-X\	in	.	.	.	.	.	.	.	.	.	.	.	.	.	.	.	.	.	.	.	.	.	.	.	.
4r	.	4ryy	.	8.A-\	no-	.	8.c\	no-	.	4r	.	.	4r	.	.	.	4r	.	4r	.	4r	.	.	.	.	.	.	.	.	.	.	.
.	.	.	.	16G\	-mi-	.	16Bn\	-mi-	.	.	.	.	.	.	.	.	.	.	.	.	.	.	.	.	.	.	.	.	.	.	.	.
=33	=33	=33	=33	=33	=33	=33	=33	=33	=33	=33	=33	=33	=33	=33	=33	=33	=33	=33	=33	=33	=33	=33	=33	=33	=33	=33	=33	=33	=33	=33	=33	=33
2.r	.	2.ryy	.	4.A-\	-ne	.	4.c\	-ne	.	4r	.	.	4r	.	.	2.ryy	2.r	.	2.r	.	2.r	.	2.ryy	.	2.ryy	.	2.ryy	2.ryy	2.ryy	2.ryy	2.ryy	2.ryy
.	.	.	.	.	.	.	.	.	.	8r	.	.	8r	.	.	.	.	.	.	.	.	.	.	.	.	.	.	.	.	.	.	.
!	!	!	!	!	!	!	!	!	!	!	!	!	!	!	!LO:DY:a	!	!	!	!	!	!	!	!	!	!	!	!	!	!	!	!	!
.	.	.	.	8r	.	.	8r	.	.	16dd\LL	in	.	(16ff\LL	in	>	.	.	.	.	.	.	.	.	.	.	.	.	.	.	.	.	.
.	.	.	.	.	.	.	.	.	.	16cc\JJ	.	.	16ee-\JJ)	.	.	.	.	.	.	.	.	.	.	.	.	.	.	.	.	.	.	.
.	.	.	.	4r	.	.	4r	.	.	(16b-\LL	no-	.	(16dd\LL	no-	.	.	.	.	.	.	.	.	.	.	.	.	.	.	.	.	.	.
.	.	.	.	.	.	.	.	.	.	16a-\JJ)	.	.	16cc\JJ)	.	.	.	.	.	.	.	.	.	.	.	.	.	.	.	.	.	.	.
!	!	!	!	!	!	!	!	!	!	!LO:TX:a:t=|:problem	!	!	!LO:TX:a:t=|:problem	!	!	!	!	!	!	!	!	!	!	!	!	!	!	!	!	!	!	!
.	.	.	.	.	.	.	.	.	.	(16g\	-mi-	.	(16b-\	-mi-	.	.	.	.	.	.	.	.	.	.	.	.	.	.	.	.	.	.
!	!	!	!	!	!	!	!	!	!	!LO:TX:a:t=|:problem	!	!	!LO:TX:a:t=|:problem	!	!	!	!	!	!	!	!	!	!	!	!	!	!	!	!	!	!	!
.	.	.	.	.	.	.	.	.	.	16f\)	-ne	.	16a-\)	-ne	]	.	.	.	.	.	.	.	.	.	.	.	.	.	.	.	.	.
=34	=34	=34	=34	=34	=34	=34	=34	=34	=34	=34	=34	=34	=34	=34	=34	=34	=34	=34	=34	=34	=34	=34	=34	=34	=34	=34	=34	=34	=34	=34	=34	=34
(8B-\	.	(8B-\yy	.	(8B-\	do-	.	(4.e-\	do-	.	(8e-\	do-	.	((8g\	do-	.	2.ryy	4.e-\	.	8e-/	.	8g/	.	2.ryy	.	2.ryy	.	2.ryy	2.ryy	2.ryy	2.ryy	2.ryy	2.ryy
4G\	.	4G\yy	.	4G\)	.	.	.	.	.	(4g\)	.	.	4b-^\)	.	.	.	.	.	4g/	.	(4b-^\	.	.	.	.	.	.	.	.	.	.	.
8E-\)	.	8E-\)yy	.	8E-\	.	.	8B-\)	.	.	(8g\L	.	.	8ee-\	.	.	.	8B-/	.	8g/	.	8ee-\)	.	.	.	.	.	.	.	.	.	.	.
4BB-/	.	4BB-/yy	.	8BB-/	.	.	8f\	.	.	8a-\J))	.	.	(8ee-\)L	.	.	.	4f\	.	4a-/ 4B-/	.	(8ee-\L	.	.	.	.	.	.	.	.	.	.	.
!	!	!	!	!	!	!	!	!	!	!	!	!	!LO:TX:a:t=|:problem	!	!	!	!	!	!	!	!LO:SIC:v:t=wykreślonych pięć taktów	!	!	!	!	!	!	!	!	!	!	!
.	.	.	.	8BB-/	-mi	.	8f\	-mi-	.	8a-\	-mi-	.	8dd\)J	-mi-	.	.	.	.	.	.	8dd\J)	.	.	.	.	.	.	.	.	.	.	.
!LO:PB:g=original	!	!LO:PB:g=original	!	!LO:PB:g=original	!	!	!LO:PB:g=original	!	!	!LO:PB:g=original	!	!	!LO:PB:g=original	!	!	!	!	!	!	!	!	!	!	!	!	!	!	!	!	!	!	!
=35	=35	=35	=35	=35	=35	=35	=35	=35	=35	=35	=35	=35	=35	=35	=35	=35	=35	=35	=35	=35	=35	=35	=35	=35	=35	=35	=35	=35	=35	=35	=35	=35
*tremolo	*	*tremolo	*	*	*	*	*	*	*	*clefG2	*	*	*clefG2	*	*	*	*tremolo	*	*tremolo	*	*tremolo	*	*	*	*	*	*	*	*	*	*	*
!	!	!LO:TX:t=P:problem:t. 35-36 w vc zapisane jako unisono cb, ukryte	!	!	!	!	!	!	!	!	!	!	!	!	!	!	!	!	!	!	!	!	!	!	!	!	!	!	!	!	!	!
8E-\L	.	8E-\Lyy	.	2E-\	.	.	2e-\	-ni	.	2g/	-ni	.	2ee-\	-ni	.	2.ryy	8e-\L	.	8g/L 8B-/	.	8ee-\L	.	2.ryy	.	2.ryy	.	2.ryy	2.ryy	2.ryy	2.ryy	2.ryy	2.ryy
8E-\	.	8E-\yy	.	.	.	.	.	.	.	.	.	.	.	.	.	.	8e-\	.	8g/ 8B-/	.	8ee-\	.	.	.	.	.	.	.	.	.	.	.
8E-\	.	8E-\yy	.	.	.	.	.	.	.	.	.	.	.	.	.	.	8e-\	.	8g/ 8B-/	.	8ee-\	.	.	.	.	.	.	.	.	.	.	.
8E-\J	.	8E-\Jyy	.	.	.	.	.	.	.	.	.	.	.	.	.	.	8e-\	.	8g/J 8B-/	.	8ee-\J	.	.	.	.	.	.	.	.	.	.	.
8E-\L	.	8E-\Lyy	.	4E-\	.	.	4e-\	in	.	4g/	in	.	4cc\	in	.	.	8e-\	.	8g/L 8c/	.	8cc\L	.	.	.	.	.	.	.	.	.	.	.
8E-\J	.	8E-\Jyy	.	.	.	.	.	.	.	.	.	.	.	.	.	.	8e-\J	.	8g/J 8c/	.	8cc\J	.	.	.	.	.	.	.	.	.	.	.
*Xtremolo	*	*Xtremolo	*	*	*	*	*	*	*	*	*	*	*	*	*	*	*Xtremolo	*	*Xtremolo	*	*Xtremolo	*	*	*	*	*	*	*	*	*	*	*
=36	=36	=36	=36	=36	=36	=36	=36	=36	=36	=36	=36	=36	=36	=36	=36	=36	=36	=36	=36	=36	=36	=36	=36	=36	=36	=36	=36	=36	=36	=36	=36	=36
!	!	!	!	!	!	!	!	!	!	!	!	!	!	!	!	!	!	!LO:DY:rj:a	!	!	!	!LO:DY:rj	!	!	!	!	!	!	!	!	!	!
8.F\L	.	8.F\Lyy	f	8.F\	.	.	(4.d\	no-	.	8.f/	no-	.	(4.b-\	no-	.	2.ryy	8.f\L	f	8.f/L 8.d/	.	8.b-\L	f	2.ryy	.	2.ryy	.	2.ryy	2.ryy	2.ryy	2.ryy	2.ryy	2.ryy
16F\Jk	.	16F\Jkyy	.	16F\	.	.	.	.	.	16f/	-mi-	.	.	.	.	.	16f\Jk	.	16f/Jk 16d/	.	16b-\Jk	.	.	.	.	.	.	.	.	.	.	.
8F\	.	8F\yy	.	8F\	.	.	.	.	.	8f/	-ne	.	.	.	.	.	8f\	.	8f/ 8d/	.	8b-\	.	.	.	.	.	.	.	.	.	.	.
8r	.	8ryy	.	8r	.	.	16c\LL	.	.	8r	.	.	16an\LL	.	.	.	8r	.	8r	.	8r	.	.	.	.	.	.	.	.	.	.	.
.	.	.	.	.	.	.	16d\JJ	.	.	.	.	.	16b-\JJ	.	.	.	.	.	.	.	.	.	.	.	.	.	.	.	.	.	.	.
4r	.	4ryy	.	4r	.	.	8e-\L	.	.	4r	.	.	8cc\L	.	.	.	4r	.	4r	.	4r	.	.	.	.	.	.	.	.	.	.	.
.	.	.	.	.	.	.	8c\J	.	.	.	.	.	8a\J	.	.	.	.	.	.	.	.	.	.	.	.	.	.	.	.	.	.	.
=37	=37	=37	=37	=37	=37	=37	=37	=37	=37	=37	=37	=37	=37	=37	=37	=37	=37	=37	=37	=37	=37	=37	=37	=37	=37	=37	=37	=37	=37	=37	=37	=37
2.r	.	2.r	.	2.r	.	.	4.B-\	.	.	2.r	.	.	4.dd\	.	.	2.ryy	2.r	.	2.r	.	2.r	.	2.ryy	.	2.ryy	.	2.ryy	2.ryy	2.ryy	2.ryy	2.ryy	2.ryy
.	.	.	.	.	.	.	16A-\LL	.	.	.	.	.	16cc\LL	.	.	.	.	.	.	.	.	.	.	.	.	.	.	.	.	.	.	.
.	.	.	.	.	.	.	16B-\JJ)	.	.	.	.	.	16dd\JJ)	.	.	.	.	.	.	.	.	.	.	.	.	.	.	.	.	.	.	.
.	.	.	.	.	.	.	8c\	-mi-	.	.	.	.	8ee-\	-mi-	.	.	.	.	.	.	.	.	.	.	.	.	.	.	.	.	.	.
.	.	.	.	.	.	.	8A-\	-ne	.	.	.	.	8cc\	-ne	.	.	.	.	.	.	.	.	.	.	.	.	.	.	.	.	.	.
=38	=38	=38	=38	=38	=38	=38	=38	=38	=38	=38	=38	=38	=38	=38	=38	=38	=38	=38	=38	=38	=38	=38	=38	=38	=38	=38	=38	=38	=38	=38	=38	=38
2.r	.	2.r	.	(2.D\	Do-	.	8.B-\	Do-	.	(>4.f/	do-	.	8.ff\	Do-	.	2.ryy	2.r	.	2.r	.	2.r	.	2.ryy	.	2.ryy	.	2.ryy	2.ryy	2.ryy	2.ryy	2.ryy	2.ryy
.	.	.	.	.	.	.	16B-\	-mi-	.	.	.	.	16ff\	-mi-	.	.	.	.	.	.	.	.	.	.	.	.	.	.	.	.	.	.
.	.	.	.	.	.	.	4B-\	-ni	.	.	.	.	4ff\	-ni	.	.	.	.	.	.	.	.	.	.	.	.	.	.	.	.	.	.
.	.	.	.	.	.	.	.	.	.	16en/LL	.	.	.	.	.	.	.	.	.	.	.	.	.	.	.	.	.	.	.	.	.	.
.	.	.	.	.	.	.	.	.	.	16f/JJ	.	.	.	.	.	.	.	.	.	.	.	.	.	.	.	.	.	.	.	.	.	.
.	.	.	.	.	.	.	4B-\	in	.	8g/L	.	.	4ff\	in	.	.	.	.	.	.	.	.	.	.	.	.	.	.	.	.	.	.
.	.	.	.	.	.	.	.	.	.	8f/J)	.	.	.	.	.	.	.	.	.	.	.	.	.	.	.	.	.	.	.	.	.	.
=39	=39	=39	=39	=39	=39	=39	=39	=39	=39	=39	=39	=39	=39	=39	=39	=39	=39	=39	=39	=39	=39	=39	=39	=39	=39	=39	=39	=39	=39	=39	=39	=39
!	!	!LO:TX:t=P:problem:t. 39 w vc zapisany jako unisono cb, ukryte	!	!	!	!	!	!	!	!	!	!	!	!	!	!	!	!	!	!	!	!	!	!	!	!	!	!	!	!	!	!
4r	.	4ryy	.	4.E-\	.	.	(2B-\	no-	.	(2g/	.	.	(2gg\	no-	.	2.ryy	4r	.	4r	.	4r	.	2.ryy	.	2.ryy	.	2.ryy	2.ryy	2.ryy	2.ryy	2.ryy	2.ryy
4r	.	4ryy	.	.	.	.	.	.	.	.	.	.	.	.	.	.	4r	.	4r	.	4r	.	.	.	.	.	.	.	.	.	.	.
.	.	.	.	16D\LL	.	.	.	.	.	.	.	.	.	.	.	.	.	.	.	.	.	.	.	.	.	.	.	.	.	.	.	.
.	.	.	.	16E-\JJ	.	.	.	.	.	.	.	.	.	.	.	.	.	.	.	.	.	.	.	.	.	.	.	.	.	.	.	.
8r	.	8ryy	.	8G\)	.	.	8B-\L	.	.	8e-/)	.	.	8gg\L	.	.	.	8r	.	8r	.	8r	.	.	.	.	.	.	.	.	.	.	.
.	.	.	.	.	.	.	.	.	.	.	.	.	.	.	.	.	.	.	.	.	.	sf	.	.	.	.	.	.	.	.	.	.
!	!LO:DY:a	!	!LO:DY:a	!	!	!	!	!	!	!	!	!	!	!	!	!	!	!	!	!	!	!	!	!	!	!	!	!	!	!	!	!
8En\	sf	8En\yy	sf	8En\	-mi-	.	8c#X\J)	.	.	8g/	-mi-	.	8bb-\J)	.	.	.	8en\ 8B-\	.	8cc#X/ 8g/	.	8bb-\ 8b-\	.	.	.	.	.	.	.	.	.	.	.
!LO:LB:g=original	!	!LO:LB:g=original	!	!LO:LB:g=original	!	!	!LO:PB:g=original	!	!	!LO:LB:g=original	!	!	!LO:LB:g=original	!	!	!	!LO:LB:g=original	!	!LO:LB:g=original	!	!LO:LB:g=original	!	!	!	!	!	!	!	!	!	!	!
=40	=40	=40	=40	=40	=40	=40	=40	=40	=40	=40	=40	=40	=40	=40	=40	=40	=40	=40	=40	=40	=40	=40	=40	=40	=40	=40	=40	=40	=40	=40	=40	=40
!	!	!LO:TX:t=P:problem:t. 40-43 w vc zapisane jako unisono cb, ukryte	!	!	!	!	!	!	!	!	!	!	!	!	!	!	!	!	!	!LO:DY:rj	!	!	!	!	!	!	!	!	!	!	!	!
4F\	f	4F\yy	f	4F\	-ni	.	([4d\	.	.	4f/	-ni	.	([4bb-\	.	.	2.ryy	4f\ 4B-\	.	4dd/ 4f/	f	4bb-\ 4b-\	f	2.ryy	.	2.ryy	.	2.ryy	2.ryy	2.ryy	2.ryy	2.ryy	2.ryy
4r	.	4ryy	.	4r	.	.	16d\LL]	.	.	4r	.	.	16bb-\LL]	.	.	.	4r	.	4r	.	4r	.	.	.	.	.	.	.	.	.	.	.
.	.	.	.	.	.	.	16B-\	.	.	.	.	.	16dd\	.	.	.	.	.	.	.	.	.	.	.	.	.	.	.	.	.	.	.
.	.	.	.	.	.	.	16c\	.	.	.	.	.	16ee-\	.	.	.	.	.	.	.	.	.	.	.	.	.	.	.	.	.	.	.
.	.	.	.	.	.	.	16c#X\JJ)	.	.	.	.	.	16een\JJ)	.	.	.	.	.	.	.	.	.	.	.	.	.	.	.	.	.	.	.
4r	.	4ryy	.	4r	.	.	(16e-\LL	-mi-	.	4r	.	.	(16gg\LL	-mi-	.	.	4r	.	4r	.	4r	.	.	.	.	.	.	.	.	.	.	.
.	.	.	.	.	.	.	16d\JJ)	.	.	.	.	.	16ff\JJ)	.	.	.	.	.	.	.	.	.	.	.	.	.	.	.	.	.	.	.
.	.	.	.	.	.	.	(16B-\LL	-ne	.	.	.	.	(16dd\LL	-ne	.	.	.	.	.	.	.	.	.	.	.	.	.	.	.	.	.	.
.	.	.	.	.	.	.	16d\JJ)	.	.	.	.	.	16b-\JJ)	.	.	.	.	.	.	.	.	.	.	.	.	.	.	.	.	.	.	.
=41	=41	=41	=41	=41	=41	=41	=41	=41	=41	=41	=41	=41	=41	=41	=41	=41	=41	=41	=41	=41	=41	=41	=41	=41	=41	=41	=41	=41	=41	=41	=41	=41
4r	.	4ryy	.	4r	.	.	(4.d\	do-	.	4r	.	.	(4.f/	do-	.	2.ryy	4r	.	4r	.	4r	.	2.ryy	.	2.ryy	.	2.ryy	2.ryy	2.ryy	2.ryy	2.ryy	2.ryy
4r	p	4ryy	p	4r	.	.	.	.	.	4r	.	.	.	.	.	.	4r	.	4r	.	4r	.	.	.	.	.	.	.	.	.	.	.
.	.	.	.	.	.	.	16c#X\LL	.	.	.	.	.	16en/LL	.	.	.	.	.	.	.	.	.	.	.	.	.	.	.	.	.	.	.
.	.	.	.	.	.	.	16d\JJ	.	.	.	.	.	16f/JJ	.	.	.	.	p	.	.	.	p	.	.	.	.	.	.	.	.	.	.
4F\	.	4F\yy	.	8.F\	do-	.	8.f\)	.	.	8.f/	do-	.	8.dd\)	.	.	.	4f\ 4c\	.	4e-/ 4c/	.	4an/	.	.	.	.	.	.	.	.	.	.	.
.	.	.	.	16F\	-mi-	.	16e-\	-mi-	.	16an/	-mi-	.	16cc\	-mi-	.	.	.	.	.	.	.	.	.	.	.	.	.	.	.	.	.	.
=42	=42	=42	=42	=42	=42	=42	=42	=42	=42	=42	=42	=42	=42	=42	=42	=42	=42	=42	=42	=42	=42	=42	=42	=42	=42	=42	=42	=42	=42	=42	=42	=42
4BB-/	.	4BB-/yy	.	4B-\	-ni	.	4d\	-ni	.	4b-/	-ni	.	8b-\	-ni	.	2.ryy	4f\ 4B-\	.	4d/	.	4b-/	.	2.ryy	.	2.ryy	.	2.ryy	2.ryy	2.ryy	2.ryy	2.ryy	2.ryy
.	.	.	.	.	.	.	.	.	.	.	.	.	4b-^\	Be-	.	.	.	.	.	.	.	.	.	.	.	.	.	.	.	.	.	.
4r	.	4ryy	.	4r	.	.	4r	.	.	4r	.	.	.	.	.	.	8r	.	4r	.	4r	.	.	.	.	.	.	.	.	.	.	.
.	.	.	.	.	.	.	.	.	.	.	.	.	(16cc\LL	.	.	.	(8a-\L 8f\	.	.	.	.	.	.	.	.	.	.	.	.	.	.	.
.	.	.	.	.	.	.	.	.	.	.	.	.	16b-\JJ	.	.	.	.	.	.	.	.	.	.	.	.	.	.	.	.	.	.	.
4r	.	4ryy	.	4r	.	.	4r	.	.	4r	.	.	16an\LL	.	.	.	8g\ 8e-\	.	4r	.	4r	.	.	.	.	.	.	.	.	.	.	.
.	.	.	.	.	.	.	.	.	.	.	.	.	16b-\	.	.	.	.	.	.	.	.	.	.	.	.	.	.	.	.	.	.	.
.	.	.	.	.	.	.	.	.	.	.	.	.	16cc\	.	.	.	8f\J 8B-\)	.	.	.	.	.	.	.	.	.	.	.	.	.	.	.
.	.	.	.	.	.	.	.	.	.	.	.	.	16b-\JJ	.	.	.	.	.	.	.	.	.	.	.	.	.	.	.	.	.	.	.
=43	=43	=43	=43	=43	=43	=43	=43	=43	=43	=43	=43	=43	=43	=43	=43	=43	=43	=43	=43	=43	=43	=43	=43	=43	=43	=43	=43	=43	=43	=43	=43	=43
!	!	!	!	!	!	!	!	!	!	!	!	!	!	!	!	!	!	!	!	!	!	!LO:DY:rj	!	!	!	!	!	!	!	!	!	!
.	.	.	.	.	.	.	.	.	.	.	.	.	.	.	.	.	.	.	.	.	(16qqe-/LL	f	.	.	.	.	.	.	.	.	.	.
!	!	!	!	!	!	!	!	!	!	!	!	!	!	!	!LO:DY:rj:a	!	!	!	!	!	!	!	!	!	!	!	!	!	!	!	!	!
.	.	.	.	.	.	.	.	.	.	(8qg/	.	.	(8qb-/)	.	f	.	.	.	.	f	16qqb-/JJ	.	.	.	.	.	.	.	.	.	.	.
!	!	!	!	!	!	!LO:DY:rj:a	!	!	!LO:DY:rj:a	!	!	!	!	!	!	!	!	!	!	!	!	!	!	!	!	!	!	!	!	!	!	!
2E-\	f	2E-\yy	f	2E-\	Be-	f	2e-\	Be-	f	2b-/)	Be-	.	2gg\)	.	.	2.ryy	2g\ 2B-\	.	2b-/ 2e-/	.	2gg\)	.	2.ryy	.	2.ryy	.	2.ryy	2.ryy	2.ryy	2.ryy	2.ryy	2.ryy
4A-\	.	4A-\yy	.	4E-\	-ne-	.	4e-\	-ne	.	4b-/	-ne	.	4dd\	-ne-	.	.	4a-\ 4B-\	.	4b-/ 4f/	.	4dd\	.	.	.	.	.	.	.	.	.	.	.
!LO:LB:g=original	!	!LO:LB:g=original	!	!LO:PB:g=original	!	!	!LO:PB:g=original	!	!	!LO:PB:g=original	!	!	!LO:PB:g=original	!	!	!	!LO:PB:g=original	!	!LO:PB:g=original	!	!LO:PB:g=original	!	!	!	!	!	!	!	!	!	!	!
=44	=44	=44	=44	=44	=44	=44	=44	=44	=44	=44	=44	=44	=44	=44	=44	=44	=44	=44	=44	=44	=44	=44	=44	=44	=44	=44	=44	=44	=44	=44	=44	=44
!	!	!LO:TX:t=P:problem:t. 44-48 w vc zapisane jako unisono cb, ukryte	!	!	!	!	!	!	!	!	!	!	!	!	!	!	!	!	!	!	!	!	!	!	!	!	!	!	!	!	!	!
4G\	.	4G\yy	.	4G\	-dic-	.	4e-\	.	.	4b-\	.	.	4ff\	-dic-	.	2.ryy	4g\ 4B-\	.	4b-/ 4e-/	.	4ff\	.	2.ryy	.	2.ryy	.	2.ryy	2.ryy	2.ryy	2.ryy	2.ryy	2.ryy
4.G\	.	4.G\yy	.	4.G\	-tus	.	4.e-\	.	.	4.b-\	.	.	4.ee-\	-tus	.	.	4.g\ 4.B-\	.	4.b-/	.	4.ee-\	.	.	.	.	.	.	.	.	.	.	.
8A-\	.	8A-\yy	.	8A-\	qui	.	8e-\	.	.	8a-/	.	.	8cc\	qui	.	.	8e-\	.	8a-/	.	8cc\	.	.	.	.	.	.	.	.	.	.	.
=45	=45	=45	=45	=45	=45	=45	=45	=45	=45	=45	=45	=45	=45	=45	=45	=45	=45	=45	=45	=45	=45	=45	=45	=45	=45	=45	=45	=45	=45	=45	=45	=45
!	!	!	!	!	!	!	!	!	!	!	!	!	!	!	!	!	!	!	!	!	!	!LO:DY:rj	!	!	!	!	!	!	!	!	!	!
2B-\	.	2B-\yy	.	(2B-\	ve-	.	(2e-\	.	.	4g/	.	.	(4b-\	ve-	.	2.ryy	2e-\	.	(4g/	.	(4b-/	p	2.ryy	.	2.ryy	.	2.ryy	2.ryy	2.ryy	2.ryy	2.ryy	2.ryy
.	.	.	.	.	.	.	.	.	.	2f/	.	.	2a-/)	.	.	.	.	.	2f/)	.	2a-/)	.	.	.	.	.	.	.	.	.	.	.
8BB-/L	.	8BB-/Lyy	.	8B-\L	.	.	4d\)	.	.	.	.	.	.	.	.	.	4d\	.	.	.	.	.	.	.	.	.	.	.	.	.	.	.
8BBn/J	.	8BBn/Jyy	.	8Bn\J)	.	.	.	.	.	.	.	.	.	.	.	.	.	.	.	.	.	.	.	.	.	.	.	.	.	.	.	.
=46	=46	=46	=46	=46	=46	=46	=46	=46	=46	=46	=46	=46	=46	=46	=46	=46	=46	=46	=46	=46	=46	=46	=46	=46	=46	=46	=46	=46	=46	=46	=46	=46
4.C/	.	4.C/yy	.	4.c\	-nit	.	4.e-\	.	.	4.e-/	.	.	4.g/	-nit	.	2.ryy	4.e-\	.	4.e-/	.	4.g/	.	2.ryy	.	2.ryy	.	2.ryy	2.ryy	2.ryy	2.ryy	2.ryy	2.ryy
8c\L	.	8c\Lyy	.	8r	.	.	8r	.	.	8r	.	.	8r	.	.	.	8c\L	.	8e-/L	.	8g/L	.	.	.	.	.	.	.	.	.	.	.
8Bn\	.	8Bn\yy	.	8r	.	.	8r	.	.	8r	.	.	8r	.	.	.	8Bn\	.	8d/	.	8g/	.	.	.	.	.	.	.	.	.	.	.
8c\J	.	8c\Jyy	.	8c\	in	.	8c\	.	.	8e-/	.	.	8g/	in	.	.	8c\J	.	8e-/J	.	8g/J	.	.	.	.	.	.	.	.	.	.	.
=47	=47	=47	=47	=47	=47	=47	=47	=47	=47	=47	=47	=47	=47	=47	=47	=47	=47	=47	=47	=47	=47	=47	=47	=47	=47	=47	=47	=47	=47	=47	=47	=47
[2A-\	.	[2A-\yy	.	2A-\	no-	.	2c\	.	.	2e-/	.	.	(>4f/	no-	.	2.ryy	[2c\	.	[>2e-/	.	[>2f/	.	2.ryy	.	2.ryy	.	2.ryy	2.ryy	2.ryy	2.ryy	2.ryy	2.ryy
.	.	.	.	.	.	.	.	.	.	.	.	.	8.f/L	.	.	.	.	.	.	.	.	.	.	.	.	.	.	.	.	.	.	.
.	.	.	.	.	.	.	.	.	.	.	.	.	32a-/LL	.	.	.	.	.	.	.	.	.	.	.	.	.	.	.	.	.	.	.
.	.	.	.	.	.	.	.	.	.	.	.	.	32cc/JJJ)	.	.	.	.	.	.	.	.	.	.	.	.	.	.	.	.	.	.	.
8A-\L]	.	8A-\L]yy	.	8A-\	-mi-	.	8c\	.	.	8e-/	.	.	8ff\	-mi-	.	.	8c\L]	.	8e-/L]	.	8f/L]	.	.	.	.	.	.	.	.	.	.	.
8An'\J	.	8An'\Jyy	.	8An\	-ne	.	8c\	.	.	8g-X/	.	.	8ee-\	-ne	.	.	8c'\J	.	8e-/J	.	8g-X'/J	.	.	.	.	.	.	.	.	.	.	.
=48	=48	=48	=48	=48	=48	=48	=48	=48	=48	=48	=48	=48	=48	=48	=48	=48	=48	=48	=48	=48	=48	=48	=48	=48	=48	=48	=48	=48	=48	=48	=48	=48
8B-\L	.	8B-\Lyy	.	2B-\	no-	.	2B-\	.	.	([4gn/	.	.	([4ee-\	no-	.	2.ryy	8B-/L	.	8e-/L	.	8gn/L	.	2.ryy	.	2.ryy	.	2.ryy	2.ryy	2.ryy	2.ryy	2.ryy	2.ryy
8B-\	.	8B-\yy	.	.	.	.	.	.	.	.	.	.	.	.	.	.	8B-/	.	8e-/	.	8g/	.	.	.	.	.	.	.	.	.	.	.
8B-\J	.	8B-\Jyy	.	.	.	.	.	.	.	16g/LL]	.	.	16ee-\LL]	.	.	.	8B-/J	.	8e-/J	.	8g/J	.	.	.	.	.	.	.	.	.	.	.
.	.	.	.	.	.	.	.	.	.	16e-/	.	.	16g\	.	.	.	.	.	.	.	.	.	.	.	.	.	.	.	.	.	.	.
8r	.	8ryy	.	.	.	.	.	.	.	16f/	.	.	16a-\	.	.	.	8r	.	8r	.	8r	.	.	.	.	.	.	.	.	.	.	.
.	.	.	.	.	.	.	.	.	.	16f#X/JJ)	.	.	16an\JJ)	.	.	.	.	.	.	.	.	.	.	.	.	.	.	.	.	.	.	.
8r	.	8ryy	.	8B-\	-mi-	.	8B-\	.	.	(16a-/LL	.	.	(16cc\LL	-mi-	.	.	8r	.	8r	.	8r	.	.	.	.	.	.	.	.	.	.	.
.	.	.	.	.	.	.	.	.	.	16g/JJ)	.	.	16b-\JJ)	.	.	.	.	.	.	.	.	.	.	.	.	.	.	.	.	.	.	.
8B-\	.	8B-\yy	.	8B-\	-ne	.	8B-\	.	.	(16e-/LL	.	.	(16g\LL	-ne	.	.	8B-/	.	(16e-/LL	.	(16g/LL	.	.	.	.	.	.	.	.	.	.	.
.	.	.	.	.	.	.	.	.	.	16g/JJ)	.	.	16ee-\JJ)	.	.	.	.	.	16g/JJ)	.	16ee-/JJ)	.	.	.	.	.	.	.	.	.	.	.
!LO:LB:g=original	!	!LO:LB:g=original	!	!LO:LB:g=original	!	!	!LO:LB:g=original	!	!	!LO:LB:g=original	!	!	!LO:LB:g=original	!	!	!	!LO:LB:g=original	!	!LO:LB:g=original	!	!LO:LB:g=original	!	!	!	!	!	!	!	!	!	!	!
=49	=49	=49	=49	=49	=49	=49	=49	=49	=49	=49	=49	=49	=49	=49	=49	=49	=49	=49	=49	=49	=49	=49	=49	=49	=49	=49	=49	=49	=49	=49	=49	=49
!	!	!LO:TX:t=P:problem:t. 49-54 w vc zapisane jako unisono cb, ukryte	!	!	!	!	!	!	!	!	!	!	!	!	!	!	!	!	!	!	!	!	!	!	!	!	!	!	!	!	!	!
[2BB-/	.	[2BB-/yy	.	[>2BB-/	do-	.	[2f\	.	.	[2a-/	.	.	(4ee-\	do-	.	2.ryy	(2f\	.	(2a-/	.	(4ee-\	.	2.ryy	.	2.ryy	.	2.ryy	2.ryy	2.ryy	2.ryy	2.ryy	2.ryy
.	.	.	.	.	.	.	.	.	.	.	.	.	8dd\L	.	.	.	.	.	.	.	8dd\L	.	.	.	.	.	.	.	.	.	.	.
.	.	.	.	.	.	.	.	.	.	.	.	.	8cc\J	.	.	.	.	.	.	.	8cc\J	.	.	.	.	.	.	.	.	.	.	.
8.BB-/L]	.	8.BB-/L]yy	.	8.BB-/]	.	.	8.f\]	.	.	8.a-/]	.	.	8.dd\)	.	.	.	8.f\L	.	8.a-/L	.	8.dd\L	.	.	.	.	.	.	.	.	.	.	.
16E-/Jk	.	16E-/Jkyy	.	16E-\	-mi-	.	16e-\	.	.	16g/	.	.	16ee-\	-mi-	.	.	16e-\Jk)	.	16g/Jk)	.	16ee-\Jk)	.	.	.	.	.	.	.	.	.	.	.
=50	=50	=50	=50	=50	=50	=50	=50	=50	=50	=50	=50	=50	=50	=50	=50	=50	=50	=50	=50	=50	=50	=50	=50	=50	=50	=50	=50	=50	=50	=50	=50	=50
4E-\	.	4E-\yy	.	4E-\	-ni	.	4e-\	.	.	4g/	.	.	4ee-\	-ni	.	2.ryy	4e-\	.	4g/	.	4ee-\	.	2.ryy	.	2.ryy	.	2.ryy	2.ryy	2.ryy	2.ryy	2.ryy	2.ryy
4r	.	4ryy	.	4r	.	.	4r	.	.	8r	.	.	4r	.	.	.	4r	.	4r	.	4r	.	.	.	.	.	.	.	.	.	.	.
.	.	.	.	.	.	.	.	.	.	8e-/	O-	.	.	.	.	.	.	.	.	.	.	.	.	.	.	.	.	.	.	.	.	.
4r	.	4ryy	.	4r	.	.	4r	.	.	(8g/L	-san-	.	4r	.	.	.	4r	.	4r	.	4r	.	.	.	.	.	.	.	.	.	.	.
.	.	.	.	.	.	.	.	.	.	8an/J)	.	.	.	.	.	.	.	.	.	.	.	.	.	.	.	.	.	.	.	.	.	.
=51	=51	=51	=51	=51	=51	=51	=51	=51	=51	=51	=51	=51	=51	=51	=51	=51	=51	=51	=51	=51	=51	=51	=51	=51	=51	=51	=51	=51	=51	=51	=51	=51
4r	.	4ryy	.	4r	.	.	4r	.	.	4.b-\	-na	.	4r	.	.	2.ryy	4r	.	4r	.	4r	.	2.ryy	.	2.ryy	.	2.ryy	2.ryy	2.ryy	2.ryy	2.ryy	2.ryy
8r	.	8ryy	.	8r	.	.	8r	.	.	.	.	.	8r	.	.	.	8r	.	8r	.	8r	.	.	.	.	.	.	.	.	.	.	.
(8BB-'/L	.	(8BB-'/Lyy	.	16B-\	in	.	16d\	.	.	16b-\	in	.	16b-\	in	.	.	(8d\L	.	(8b-/L	.	(8b-\L	.	.	.	.	.	.	.	.	.	.	.
.	.	.	.	16B-\	ex-	.	16d\	.	.	16b-\	ex-	.	16b-\	ex-	.	.	.	.	.	.	.	.	.	.	.	.	.	.	.	.	.	.
8BB-'/	.	8BB-'/yy	.	4BB-/	-cael-	.	(8e-\L	.	.	(8an/L	-cael-	.	(8cc\L	-cael-	.	.	8e-\	.	8an/	.	8cc\	.	.	.	.	.	.	.	.	.	.	.
8BB-'/J)	.	8BB-'/J)yy	.	.	.	.	8f\J)	.	.	8a-X/J)	.	.	8dd\J)	.	.	.	8f\J)	.	8a-X/J)	.	8dd\J)	.	.	.	.	.	.	.	.	.	.	.
=52	=52	=52	=52	=52	=52	=52	=52	=52	=52	=52	=52	=52	=52	=52	=52	=52	=52	=52	=52	=52	=52	=52	=52	=52	=52	=52	=52	=52	=52	=52	=52	=52
4E-\	.	4E-\yy	.	4E-\	-sis	.	4e-\	.	.	4g/	-sis	.	4ee-\	-sis	.	2.ryy	4e-\	.	4g/	.	4ee-\	.	2.ryy	.	2.ryy	.	2.ryy	2.ryy	2.ryy	2.ryy	2.ryy	2.ryy
4r	.	4ryy	.	8r	.	.	4r	.	.	4r	.	.	4r	.	.	.	4r	.	4r	.	4r	.	.	.	.	.	.	.	.	.	.	.
.	.	.	.	8E-\	O-	.	.	.	.	.	.	.	.	.	.	.	.	.	.	.	.	.	.	.	.	.	.	.	.	.	.	.
!	!	!	!	!LO:TX:t=P:problem:mixed beam	!	!	!	!	!	!	!	!	!	!	!	!	!	!	!	!	!	!	!	!	!	!	!	!	!	!	!	!
4r	.	4ryy	.	(8G-X\L	-san-	.	4r	.	.	4r	.	.	4r	.	.	.	4r	.	4r	.	4r	.	.	.	.	.	.	.	.	.	.	.
.	.	.	.	8AAn/J)	.	.	.	.	.	.	.	.	.	.	.	.	.	.	.	.	.	.	.	.	.	.	.	.	.	.	.	.
=53	=53	=53	=53	=53	=53	=53	=53	=53	=53	=53	=53	=53	=53	=53	=53	=53	=53	=53	=53	=53	=53	=53	=53	=53	=53	=53	=53	=53	=53	=53	=53	=53
4r	.	4ryy	.	4BB-/	-na	.	4r	.	.	4r	.	.	4r	.	.	2.ryy	4r	.	4r	.	4r	.	2.ryy	.	2.ryy	.	2.ryy	2.ryy	2.ryy	2.ryy	2.ryy	2.ryy
8.r	.	8.ryy	.	8.r	.	.	8.r	.	.	8.r	.	.	8.r	.	.	.	8.r	.	8.r	.	8.r	.	.	.	.	.	.	.	.	.	.	.
(16B-\KL	<	(16B-\KLyy	<	(16B-\	in	.	[16e-\	.	.	(16e-/	.	.	(16g/	in	.	.	16e-\KL	.	(16e-/KL	<	(16g/KL	<	.	.	.	.	.	.	.	.	.	.
8.G\)	.	8.G\)yy	.	8.G\)	.	.	8.e-\]	.	.	8.g/)	.	.	8.b-/)	.	.	.	8.e-\	.	8.g/)	.	8.b-/)	.	.	.	.	.	.	.	.	.	.	.
!LO:TX:a:t=|:problem	!	!LO:TX:a:t=|:problem	!	!	!	!	!LO:TX:a:t=|:problem	!	!	!	!	!	!	!	!	!	!	!	!	!	!	!	!	!	!	!	!	!	!	!	!	!
16E-\Jk	[[	16E-\Jkyy	[[	16E-\	ex-	.	16B-\	.	.	16g/	.	.	16ee-\	ex-	.	.	16B-\Jk	.	16g/Jk	[[	16ee-/Jk	[[ f	.	.	.	.	.	.	.	.	.	.
=54	=54	=54	=54	=54	=54	=54	=54	=54	=54	=54	=54	=54	=54	=54	=54	=54	=54	=54	=54	=54	=54	=54	=54	=54	=54	=54	=54	=54	=54	=54	=54	=54
!	!LO:DY:rj	!	!LO:DY:rj	!	!	!	!	!	!	!	!	!	!	!	!	!	!	!LO:DY:rj	!	!	!	!	!	!	!	!	!	!	!	!	!	!
4BB-/	f	4BB-/yy	f	2.BB-/	-cael-	.	(2e-\	.	.	(2b-/	.	.	(2gg\	-cael-	.	2.ryy	4e-/ 4G/	f	4b-/ 4e-/ 4G/	.	4gg\ 4b-\ 4e-\	.	2.ryy	.	2.ryy	.	2.ryy	2.ryy	2.ryy	2.ryy	2.ryy	2.ryy
4r	.	4ryy	.	.	.	.	.	.	.	.	.	.	.	.	.	.	4r	.	4r	.	4r	.	.	.	.	.	.	.	.	.	.	.
4BB-/	.	4BB-/yy	.	.	.	.	4d\)	.	.	4a-/)	.	.	8.gg\L	.	.	.	4f\ 4A-\	.	4a-/ 4B-/	.	4dd\	.	.	.	.	.	.	.	.	.	.	.
.	.	.	.	.	.	.	.	.	.	.	.	.	16ff\Jk)	.	.	.	.	.	.	.	.	.	.	.	.	.	.	.	.	.	.	.
!LO:PB:g=original	!	!LO:PB:g=original	!	!LO:PB:g=original	!	!	!LO:PB:g=original	!	!	!LO:PB:g=original	!	!	!LO:PB:g=original	!	!	!	!	!	!LO:PB:g=original	!	!LO:LB:g=original	!	!	!	!	!	!	!	!	!	!	!
=55||	=55||	=55||	=55||	=55||	=55||	=55||	=55||	=55||	=55||	=55||	=55||	=55||	=55||	=55||	=55||	=55||	=55||	=55||	=55||	=55||	=55||	=55||	=55||	=55||	=55||	=55||	=55||	=55||	=55||	=55||	=55||	=55||
*clefF4	*	*clefF4	*	*clefF4	*	*	*clefC4	*	*	*clefC3	*	*	*clefC1	*	*	*	*clefC3	*	*clefG2	*	*clefG2	*	*clefF4	*	*clefG2	*	*clefF4	*clefG2	*clefG2	*clefG2	*clefG2	*clefG2
*ITrd0c0	*	*	*	*	*	*	*	*	*	*	*	*	*	*	*	*	*	*	*	*	*	*	*	*	*ITrd1c2	*	*	*ITrd5c9	*ITrd1c2	*	*	*
*k[b-e-a-]	*	*k[b-e-a-]	*	*k[b-e-a-]	*	*	*k[b-e-a-]	*	*	*k[b-e-a-]	*	*	*k[b-e-a-]	*	*	*	*k[b-e-a-]	*	*k[b-e-a-]	*	*k[b-e-a-]	*	*k[b-e-a-]	*	*k[b-e-a-]	*	*k[b-e-a-]	*k[b-e-a-]	*k[b-e-a-]	*k[b-e-a-]	*k[b-e-a-]	*k[b-e-a-]
*M6/8	*	*M6/8	*	*M6/8	*	*	*M6/8	*	*	*M6/8	*	*	*M6/8	*	*	*	*M6/8	*	*M6/8	*	*M6/8	*	*M6/8	*	*M6/8	*	*M6/8	*M6/8	*M6/8	*M6/8	*M6/8	*M6/8
!	!	!LO:TX:t=P:problem:t. 55-57 w vc zapisane jako unisono cb, ukryte	!	!	!	!	!	!	!	!	!	!	!	!	!	!	!	!	!	!	!	!	!	!	!	!	!	!	!	!	!	!LO:TX:a:t=All.o. mod.to.
8E-\L	.	8E-\Lyyyy	.	4E-\	-sis	.	4e-\	.	.	4g\	.	.	4ee-\	-sis	.	2.ryy	4e-\yy	.	4gyy/ 4B-/yy	.	4ee-\yy	.	2.ryy	.	2.ryy	.	8ryy	2.ryy	2.ryy	2.ryy	2.ryyyy	2.ryy
8G\	.	8G\yyyy	.	.	.	.	.	.	.	.	.	.	.	.	.	.	.	.	.	.	.	.	.	.	.	.	8G\L 8GG\	.	.	.	.	.
8G\J	.	8G\Jyyyy	.	8r	.	.	8r	.	.	8r	.	.	8r	.	.	.	8ryy	.	8ryy	.	8ryy	.	.	.	.	.	8G\J 8GG\	.	.	.	.	.
8G\L	.	8G\Lyyyy	.	4r	.	.	4r	.	.	4r	.	.	4r	.	.	.	4ryy	.	4ryy	.	4ryy	.	.	.	.	.	8G\L 8GG\	.	.	.	.	.
8G\	.	8G\yyyy	.	.	.	.	.	.	.	.	.	.	.	.	.	.	.	.	.	.	.	.	.	.	.	.	8G\ 8GG\	.	.	.	.	.
8G\J	.	8G\Jyyyy	.	8G\	O-	.	8r	.	.	8r	.	.	8r	.	.	.	8ryy	.	8ryy	.	8ryy	.	.	.	.	.	8G\J 8GG\	.	.	.	.	.
=56	=56	=56	=56	=56	=56	=56	=56	=56	=56	=56	=56	=56	=56	=56	=56	=56	=56	=56	=56	=56	=56	=56	=56	=56	=56	=56	=56	=56	=56	=56	=56	=56
!	!	!	!	!	!	!	!	!	!	!	!	!	!	!	!	!LO:SIC:v:t=t.56-65 ukryte, wpisane za skanami 50-51	!LO:SIC:v:t=t.56-65 ukryte, wpisane za skanami 50-51	!	!LO:SIC:v:t=t.56-65 ukryte, wpisane za skanami 50-51	!	!LO:SIC:v:t=t.56-65 ukryte, wpisane za skanami 50-51	!	!LO:SIC:v:t=t.56-65 ukryte, wpisane za skanami 50-51	!	!LO:SIC:v:t=t.56-65 ukryte, wpisane za skanami 50-51	!	!	!LO:SIC:v:t=t.56-65 ukryte, wpisane za skanami 50-51	!LO:SIC:v:t=t.56-65 ukryte, wpisane za skanami 50-51	!LO:SIC:v:t=t.56-65 ukryte, wpisane za skanami 50-51	!	!LO:SIC:v:t=t.56-65 ukryte, wpisane za skanami 50-51
4c\	.	4c\yyyy	.	4c\	-san-	.	2.r	.	.	2.r	.	.	2.r	.	.	2.ryy	2.ryy	.	2.ryy	.	2.ryy	.	2.ryy	.	2.ryy	.	4c\ 4C\	2.ryy	2.ryy	2.ryy	2.ryyyy	2.ryy
8B-\	.	8B-\yyyy	.	8B-\	-na	.	.	.	.	.	.	.	.	.	.	.	.	.	.	.	.	.	.	.	.	.	8B-\ 8BB-\	.	.	.	.	.
(8A-\L	.	(8A-\Lyyyy	.	(8A-\L	in	.	.	.	.	.	.	.	.	.	.	.	.	.	.	.	.	.	.	.	.	.	(>8A-/L 8AA-/	.	.	.	.	.
8G\)	.	8G\)yyyy	.	8G\J)	.	.	.	.	.	.	.	.	.	.	.	.	.	.	.	.	.	.	.	.	.	.	8G/ 8GG/)	.	.	.	.	.
8F'\J	.	8F'\Jyyyy	.	8F\	ex-	.	.	.	.	.	.	.	.	.	.	.	.	.	.	.	.	.	.	.	.	.	8F/J 8FF'/	.	.	.	.	.
=57	=57	=57	=57	=57	=57	=57	=57	=57	=57	=57	=57	=57	=57	=57	=57	=57	=57	=57	=57	=57	=57	=57	=57	=57	=57	=57	=57	=57	=57	=57	=57	=57
*	*	*	*	*	*	*	*	*	*	*	*	*	*	*	*	*	*	*	*	*	*	*	*	*	*^	*	*	*	*^	*^	*	*
(4.B-\	.	(4.B-\yyyy	.	4.B-\	-cael-	.	4r	.	.	4r	.	.	4r	.	.	2.ryy	4ryy	.	4ryy	.	4ryy	.	2.ryy	.	4rdyy	2.rcyy	.	4.B-\ 4.BB-\	2.ryy	4ryy	4rfyyyy	4ryy	4rgyyyy	2.ryyyy	4ryy
.	.	.	.	.	.	.	8r	.	.	8r	.	.	8r	.	.	.	8ryy	.	8ryy	.	8ryy	.	.	.	8rdyy	.	.	.	.	8ryy	8rfyyyy	8ryy	8rgyyyy	.	8ryy
4G\)	.	4G\)yyyy	.	4G\	-sis	.	4r	.	.	4r	.	.	4r	.	.	.	4ryy	.	4ryy	.	4ryy	.	.	.	4rdyy	.	.	4G/ 4GG/	.	4ryy	4rfyyyy	4ryy	4rgyyyy	.	4ryy
!	!	!	!	!	!	!	!	!	!	!	!	!	!	!	!	!	!	!	!	!	!	!	!	!	!	!	!	!LO:TX:t=P:problem:t.58(+przedtakt ósemkowy)-65 ukryte, wpisane za skanami 50-51	!	!	!	!	!	!	!
8G\	.	8G\yy	.	8G\	o-	.	8e-\	.	.	8b-\	.	.	8ee-\	.	.	.	8e-yy\ 8G\yy	.	8b-/yy	.	8ee-\yy	.	.	.	8e-/yy	.	.	8Gyy/ 8GG/yy	.	8ee-/yy	8b-\yy	8bb-/yy	8ee-\yy	.	8eee-\yy
=58	=58	=58	=58	=58	=58	=58	=58	=58	=58	=58	=58	=58	=58	=58	=58	=58	=58	=58	=58	=58	=58	=58	=58	=58	=58	=58	=58	=58	=58	=58	=58	=58	=58	=58	=58
*	*	*	*	*	*	*	*	*	*	*	*	*	*	*	*	*	*^	*	*	*	*	*	*	*	*	*	*	*	*^	*	*	*	*	*	*
!LO:TX:t=P:problem:t.58-65 ukryte, wpisane za skanami 50-51	!	!LO:TX:t=P:problem:t.58-65 ukryte, wpisane za skanami 50-51	!	!	!	!	!	!	!	!	!	!	!	!	!	!	!	!	!	!	!	!	!	!	!	!	!	!	!	!	!	!	!	!	!	!	!
4A-\yy	.	4A-\yy	.	4A-\	-san-	.	4e-\	.	.	4a-\	.	.	4cc\	.	.	2.ryy	4e-yy\ 4A-\yy	4ryyyy	.	4a-/yy	.	4cc\yy	.	2.ryy	.	4c/yy	2.rcyy	.	4A-yy/ 4AA-/yy	4ryy	4rByyyy	4cc/yy	4a-\yy	4aa-/yy	4ee-\yy	2.ryyyy	4ccc\yy
8G\yy	.	8G\yy	.	8B-\	-na	.	8c\	.	.	8g\	.	.	8een\	.	.	.	8c/yy	8B-\yy	.	8g/yy	.	8een\yy	.	.	.	8eX/yy	.	<	8B-yy/ 8BB-/yy	8ryy	8rByyyy	8eeX/yy	8g\yy	8gg/yy	8cc\yy	.	8eeen\yy
8A-\Lyy	.	8A-\Lyy	.	(8A-\L	in	.	4c\	.	.	(8f\L	.	.	(8ff\L	.	.	.	8c/Lyy	8A-\Lyy	.	(8f/Lyy	.	(8ff\Lyy	.	.	.	(>8f/Lyy	.	.	8A-yy/L 8AA-/yy	4ryy	4rByyyy	8ff/Lyy	8f\Lyy	8ff/Lyy	4cc\yy	.	(8fff\Lyy
8G\yy	.	8G\yy	.	8G\J)	.	.	.	.	.	8en\J)	.	.	8gg\J)	.	.	.	8c/yy	8G\yy	.	8en/yy	.	8gg\yy	.	.	.	8g/yy	.	.	8Gyy/ 8GG/yy	.	.	8gg/yy	8eX\yy	8een/yy	.	.	8ggg\yy
!	!	!	!	!LO:TX:a:t=|:problem	!	!	!	!	!	!	!	!	!	!	!	!	!	!	!	!	!	!	!	!	!	!	!	!	!	!	!	!	!	!	!	!	!
8F\Jyy	.	8F\Jyy	.	8F\	ex-	.	8c\	.	.	8f\	.	.	8aa-\	.	.	.	8c/Jyy	8F\Jyy	.	8f/J)yy	.	8aa-\J)yy	.	.	.	8a-X/Jyy	.	.	8Fyy/J 8FF/yy	8f/yy	8f\yy	8aa-/Jyy	8f\Jyy	8ff/Jyy	8cc\yy	.	8aaa-\J)yy
*	*	*	*	*	*	*	*	*	*	*	*	*	*	*	*	*	*v	*v	*	*	*	*	*	*	*	*	*	*	*	*	*	*	*	*	*	*	*
=59	=59	=59	=59	=59	=59	=59	=59	=59	=59	=59	=59	=59	=59	=59	=59	=59	=59	=59	=59	=59	=59	=59	=59	=59	=59	=59	=59	=59	=59	=59	=59	=59	=59	=59	=59	=59
!	!	!	!	!	!	!	!	!	!	!	!	!	!	!	!	!	!	!	!	!	!	!	!	!LO:DY:rj	!	!	!LO:DY:rj	!	!	!	!	!	!	!	!	!
4B-\yy	.	4B-\yy	.	(4B-\	-cael-	.	(4e-\	.	.	(4g\	.	.	(4b-\	.	.	4BB-/yy	4e-yy\ 4B-\yy	.	4g/yy	.	(4b-\yy	.	4e-yy\ 4Gyy\ 4BB-\yy	f	4b-/)yy	4b-\yy	[ f	4B-yy\ 4BB-\yy	4g/yy	4e-\yy	4b-/yy	4g\yy	4gg/yy	4ee-\yy	2.ryyyy	4bb-\yy
8BB-/yy	.	8BB-/yy	.	8BB-/)	.	.	8f\)	.	.	8a-\)	.	.	8dd\)	.	.	8BB-/yy	8fyy\ 8B-\yy	.	8a-yy/ 8B-/yy	.	8dd\)yy	.	8dyy\ 8Fyy\ 8BB-\yy	.	8ddyy\ 8a-X\yy	8ryyyy	.	8B-yy\ 8BB-\yy	8fyy/ 8B-/yy	8rByyyy	8dd/yy	8a-\yy	8aa-/yy	8ff\yy	.	8ddd\yy
4E-\yy	.	4E-\yy	.	4E-\	-sis	.	4e-\	.	.	4g\	.	.	4ee-\	.	.	4E-\yy	4e-yy\ 4B-\yy	.	4gyy/ 4B-/yy	.	4ee-\yy	.	4e-yy\ 4Gyy\ 4E-\yy	.	4ee-yy\ 4g\yy	4ryyyy	.	4B-yy\ 4E-\yy	4e-yy/ 4G/yy	4rByyyy	4ee-/yy	4g\yy	4gg/yy	4ee-\yy	.	4eee-\yy
8E-\yy	.	8E-\yy	.	8E-\	O-	.	8G/	.	.	8r	.	.	8r	.	.	8ryy	8G/yy	.	8ryy	.	8ryy	.	8ryy	.	8gyy/ 8e-/yy	8ryyyy	.	8Gyy\ 8E-\yy	8gyy\ 8e-\yy	8rByyyy	8ryy	[8rfyyyy	8ryy	[8rgyyyy	.	8ryy
*	*	*	*	*	*	*	*	*	*	*	*	*	*	*	*	*	*	*	*	*	*	*	*	*	*v	*v	*	*	*v	*v	*	*	*	*	*	*
!LO:PB:g=original	!	!LO:PB:g=original	!	!LO:PB:g=original	!	!	!LO:PB:g=original	!	!	!LO:PB:g=original	!	!	!LO:PB:g=original	!	!	!LO:PB:g=original	!LO:PB:g=original	!	!LO:PB:g=original	!	!	!	!LO:PB:g=original	!	!LO:PB:g=original	!	!	!LO:PB:g=original	!LO:PB:g=original	!	!	!LO:PB:g=original	!LO:PB:g=original	!LO:PB:g=original
=60	=60	=60	=60	=60	=60	=60	=60	=60	=60	=60	=60	=60	=60	=60	=60	=60	=60	=60	=60	=60	=60	=60	=60	=60	=60	=60	=60	=60	=60	=60	=60	=60	=60	=60
*	*	*	*	*	*	*	*	*	*	*	*	*	*	*	*	*	*	*	*	*	*	*	*	*	*	*	*^	*	*	*	*	*	*	*
(4G\yy	.	(4G\yy	.	(4G\	-san-	.	(4B-\	.	.	4r	.	.	4r	.	.	4ryy	4ryy	.	4ryy	.	4ryy	.	4ryy	.	(>4b-/yy 4g/yy	.	(>(>4B-yy\ 4G\yy	4rBByyyy	(4b-yy\ 4g\yy	4ryy	4rf]yy	4ryy	4rg]yy	2.ryyyy	4ryy
8E-\)yy	.	8E-\)yy	.	8E-\)	.	.	8G\)	.	.	8r	.	.	8r	.	.	8ryy	8ryy	.	8ryy	.	8ryy	.	8ryy	.	8gyy/ 8e-/yy	.	8G\yy 8E-\)yy)	8rBByyyy	8gyy\ 8e-\)yy	8ryy	8rfyyyy	8ryy	8rgyyyy	.	8ryy
8G\yy	.	8G\yy	.	8G\	-na	.	8B-\	.	.	8r	.	.	8r	.	.	8ryy	8ryy	.	8ryy	.	8ryy	.	8ryy	.	8b-yy/ 8g/)yy	.	8B-yy\ 8G\yy	8rBByyyy	8b-yy\ 8g\yy	8ryy	8rfyyyy	8ryy	8rgyyyy	.	8ryy
8G'\Lyy	.	8G'\Lyy	.	8G\	in	.	8B-\	.	.	8b-\	.	.	8ee-\	in	.	8E-\Lyy	8B-yy/L 8G'/yy	.	8b-'/Lyy	.	8ee-'\Lyy	.	8B-yy\L 8G'\yy	.	8e-/Lyy	.	8G'/Lyy	8G\Lyy	8gyy/L 8e-/yy	8b-/Lyy	8b-\Lyy	8ee-'/Lyy	8b-\Lyy	.	8ee-'\Lyy
8E-'\Jyy	.	8E-'\Jyy	.	8E-\	ex-	.	8e-\	.	.	8b-\	.	.	8gg\	ex-	.	8E-\Jyy	8e-yy/J 8G/yy	.	8b-'/Jyy	.	8gg'\Jyy	.	8e-yy\J 8Gyy\ 8E-'\yy	.	8g/Jyy	.	8E-'/Jyy	8E-\Jyy	8e-yy/J 8B-/yy	8ee-/Jyy	8b-\Jyy	8gg'/Jyy	8b-\Jyy	.	8gg'\Jyy
=61	=61	=61	=61	=61	=61	=61	=61	=61	=61	=61	=61	=61	=61	=61	=61	=61	=61	=61	=61	=61	=61	=61	=61	=61	=61	=61	=61	=61	=61	=61	=61	=61	=61	=61	=61
*	*	*	*	*	*	*	*	*	*	*	*	*	*	*	*	*	*	*	*	*	*	*	*	*	*^	*	*	*	*	*	*	*	*	*	*
*	*	*	*	*	*	*	*	*	*	*	*	*	*	*	*	*tremolo	*	*	*	*	*	*	*	*	*	*	*	*	*	*	*	*	*	*	*	*
(4.BB-/yy	.	(4.BB-/yy	.	4.BB-/	-cael-	.	4d\	.	.	(4b-\	.	.	(4bb-\	-cael-	.	16BB-/LLyy	(4dyy\ 4F\yy	.	4b-/yy	.	(4bb-\yy	.	(<(>4.dyy\ (>4.Fyy\ 4.BB-\yy	.	4b-/yy	4b-\yy	.	[4.B-yy\ 4.BB-\yy	4ryyyy	4fyy/ 4B-/yy	4dd/yy	4b-\yy	(4bb-/yy	4b-\yy	2.ryyyy	(4bb-\yy
.	.	.	.	.	.	.	.	.	.	.	.	.	.	.	.	16BB-/yy	.	.	.	.	.	.	.	.	.	.	.	.	.	.	.	.	.	.	.	.
.	.	.	.	.	.	.	.	.	.	.	.	.	.	.	.	16BB-/yy	.	.	.	.	.	.	.	.	.	.	.	.	.	.	.	.	.	.	.	.
.	.	.	.	.	.	.	.	.	.	.	.	.	.	.	.	16BB-/yy	.	.	.	.	.	.	.	.	.	.	.	.	.	.	.	.	.	.	.	.
.	.	.	.	.	.	.	8f\	.	.	8a-\)	.	.	8dd\)	.	.	16BB-/yy	8fyy\ 8A-\)yy	.	8a-/yy	.	8dd\)yy	.	.	.	8dd/yy	8a-\yy	.	.	8ryyyy	8fyy/ 8B-/yy	8ff/yy	8b-\yy	8dd/)yy	8a-\yy	.	8dd\)yy
.	.	.	.	.	.	.	.	.	.	.	.	.	.	.	.	16BB-/JJyy	.	.	.	.	.	.	.	.	.	.	.	.	.	.	.	.	.	.	.	.
*	*	*	*	*	*	*	*	*	*	*	*	*	*	*	*	*Xtremolo	*	*	*	*	*	*	*	*	*	*	*	*	*	*	*	*	*	*	*	*
4E-\)yy	.	4E-\)yy	.	8E-\	-sis	.	4e-\	.	.	4g\	.	.	4ee-\	-sis	.	4E-\yy	4e-yy/ 4G/yy	.	4g/yy	.	4ee-\yy	.	4e-\yy 4G\)yy 4E-\)yy)	.	4ee-/yy	4g\yy	.	4B-/]yy 4E-/yy	4E-\yy	4e-yy/ 4G/yy	4ee-/yy	4b-\yy	4ee-/yy	4g\yy	.	4ee-\yy
.	.	.	.	8E-\	.	.	.	.	.	.	.	.	.	.	.	.	.	.	.	.	.	.	.	.	.	.	.	.	.	.	.	.	.	.	.	.
8E-\yy	.	8E-\yy	.	8E-\	O-	.	8G/	.	.	8r	.	.	8r	.	.	8ryy	8ryy	.	8ryy	.	8ryy	.	8ryy	.	8b-/yy	8g\yy	.	8Gyy\ 8E-\yy	8ryyyy	8gyy\ 8e-\yy	8ryy	8ryy	8rgyy	8ryy	.	8ryy
*	*	*	*	*	*	*	*	*	*	*	*	*	*	*	*	*	*	*	*	*	*	*	*	*	*	*	*	*	*	*	*v	*v	*	*	*	*
=62	=62	=62	=62	=62	=62	=62	=62	=62	=62	=62	=62	=62	=62	=62	=62	=62	=62	=62	=62	=62	=62	=62	=62	=62	=62	=62	=62	=62	=62	=62	=62	=62	=62	=62	=62
(4G\yy	.	(4G\yy	.	(4G\	-san-	.	(4B-\	.	.	4r	.	.	4r	.	.	4ryy	4ryy	.	4ryy	.	4ryy	.	4ryy	.	(4b-/yy	4g\yy	.	(>(>4B-yy\ 4G\yy	2ryyyy	(4b-yy\ 4g\yy	4ryy	4ryy	4rgyyyy	2.ryyyy	4ryy
8E-\)yy	.	8E-\)yy	.	8E-\)	.	.	8G/)	.	.	8r	.	.	8r	.	.	8ryy	8ryy	.	8ryy	.	8ryy	.	8ryy	.	8g/)yy	8e-\yy	.	8G\yy 8E-\)yy)	.	8gyy\ 8e-\)yy	8ryy	8ryy	8rgyyyy	.	8ryy
8G\yy	.	8G\yy	.	8G\	-na	.	8B-\	.	.	8r	.	.	8r	.	.	8ryy	8ryy	.	8ryy	.	8ryy	.	8ryy	.	8b-/yy	8g\yy	.	8B-yy\ 8G\yy	.	8b-yy\ 8g\yy	8ryy	8ryy	8rgyyyy	.	8ryy
8G'\Lyy	.	8G'\Lyy	.	8G\	in	.	8B-\	.	.	8b-\	.	.	8ee-\	in	.	8E-\Lyy	8B-yy/L 8G'/yy	.	8b-/Lyy	.	8ee-'\Lyy	.	8B-yy\L 8G'\yy	.	8e-/Lyy	8ryyyy	.	8G/Lyy	8G\Lyy	8gyy/L 8e-'/yy	8b-\Lyy	8ee-/Lyy	8b-\Lyy	.	8ee-'\Lyy
8E-'\Jyy	.	8E-'\Jyy	.	8E-\	ex-	.	8e-\	.	.	8b-\	.	.	8gg\	ex-	.	8E-\Jyy	8e-yy/J 8G'/yy	.	8b-/Jyy	.	8gg'\Jyy	.	8e-yy\J 8Gyy\ 8E-'\yy	.	8g/Jyy	8ryyyy	.	8E-/Jyy	8E-\Jyy	8e-yy/J 8B-'/yy	8ee-yy\J 8b-\yy	8gg/Jyy	8b-\Jyy	.	8gg'\Jyy
*	*	*	*	*	*	*	*	*	*	*	*	*	*	*	*	*	*	*	*	*	*	*	*	*	*	*	*	*v	*v	*	*	*	*	*	*
=63	=63	=63	=63	=63	=63	=63	=63	=63	=63	=63	=63	=63	=63	=63	=63	=63	=63	=63	=63	=63	=63	=63	=63	=63	=63	=63	=63	=63	=63	=63	=63	=63	=63	=63
*	*	*	*	*	*	*	*	*	*	*	*	*	*	*	*	*	*	*	*	*	*	*	*	*	*	*	*	*	*	*^	*	*	*	*
*	*	*	*	*	*	*	*	*	*	*	*	*	*	*	*	*tremolo	*	*	*	*	*	*	*	*	*	*	*	*	*	*	*	*	*	*	*
4.BB-/yy	.	4.BB-/yy	.	4.BB-/	-cael-	.	(4d\	.	.	(4b-\	.	.	(4bb-\	-cael-	.	16BB-/LLyy	(>4dyy/ 4F/yy	.	(>4b-/yy	.	(4bb-\yy	.	((4.dyy\ (>4.Fyy\ 4.BB-\yy	.	4b-/yy	4b-\yy	.	4.B-yy\ 4.BB-\yy	4fyy/ 4B-/yy	4dd/yy	4b-\yy	(4bb-/yy	4b-\yy	2.ryyyy	(4bb-\yy
.	.	.	.	.	.	.	.	.	.	.	.	.	.	.	.	16BB-/yy	.	.	.	.	.	.	.	.	.	.	.	.	.	.	.	.	.	.	.
.	.	.	.	.	.	.	.	.	.	.	.	.	.	.	.	16BB-/yy	.	.	.	.	.	.	.	.	.	.	.	.	.	.	.	.	.	.	.
.	.	.	.	.	.	.	.	.	.	.	.	.	.	.	.	16BB-/yy	.	.	.	.	.	.	.	.	.	.	.	.	.	.	.	.	.	.	.
.	.	.	.	.	.	.	8f\)	.	.	8a-\)	.	.	8dd\)	.	.	16BB-/yy	8fyy/ 8A-/yy	.	8a-/yy	.	8dd\)yy	.	.	.	8dd/yy	8a-\yy	.	.	8fyy/ 8B-/yy	8ff/yy	8b-\yy	8dd/)yy	8a-\yy	.	8dd\)yy
.	.	.	.	.	.	.	.	.	.	.	.	.	.	.	.	16BB-/JJyy	.	.	.	.	.	.	.	.	.	.	.	.	.	.	.	.	.	.	.
*	*	*	*	*	*	*	*	*	*	*	*	*	*	*	*	*Xtremolo	*	*	*	*	*	*	*	*	*	*	*	*	*	*	*	*	*	*	*
8E-\yy	.	8E-\yy	.	8E-\	-sis	.	8e-\	.	.	8g\	.	.	8ee-\	-sis	.	8E-\yy	8e-/yy 8G/yy)	.	8g/)yy	.	8ee-\yy	.	8e-\yy 8G\)yy 8E-\)yy)	.	8ee-/yy	8g\yy	.	8B-yy\ 8G\yy	8gyy\ 8e-\yy	8ee-/yy	8b-\yy	8ee-yy/ 8g/yy	4rgyyyy	.	8ee-\yy
8G'\Lyy	.	8G'\Lyy	.	8G\	in	.	8g\	.	.	8g\	.	.	8gg\	in	.	8ryy	8g'\Lyy	.	8g'/Lyy	.	8gg'\Lyy	.	8G\Lyy	.	8g'/Lyy	8ryyyy	.	8G'\Lyy	8g\Lyy	8g/Lyy	8rfyyyy	8gg'\Lyy	.	.	8gg'\Lyy
8E-'\Jyy	.	8E-'\Jyy	.	8E-\	ex-	.	8e-\	.	.	8e-\	.	.	8ee-\	ex-	.	8ryy	8e-'\Jyy	.	8e-'/Jyy	.	8ee-'\Jyy	.	8E-\Jyy	.	8e-'/Jyy	8ryyyy	.	8E-'\Jyy	8e-\Jyy	8e-/Jyy	8rfyyyy	8ee-'\Jyy	8ryyyy	.	8ee-'\Jyy
=64	=64	=64	=64	=64	=64	=64	=64	=64	=64	=64	=64	=64	=64	=64	=64	=64	=64	=64	=64	=64	=64	=64	=64	=64	=64	=64	=64	=64	=64	=64	=64	=64	=64	=64	=64
*	*	*	*	*	*	*	*	*	*	*	*	*	*	*	*	*tremolo	*	*	*	*	*	*	*	*	*	*	*	*	*	*	*	*	*	*	*
4B-\yy	.	4B-\yy	.	(4B-\	-cael-	.	(4B-\	.	.	4.b-\	.	.	4.bb-\	-cael-	.	16BB-/LLyy	4B-/yy	.	(4b-\yy	.	(4.bb-\yy	.	4B-yy\ 4BB-\yy	.	(4.b-/yy	4.b-\yy	.	4B-yy\ 4BB-\yy	4b-yy\ 4B-\yy	(4b-/yy	4b-\yy	(4.bb-/yy	4b-\yy	2.ryyyy	(4.bb-\yy
.	.	.	.	.	.	.	.	.	.	.	.	.	.	.	.	16BB-/yy	.	.	.	.	.	.	.	.	.	.	.	.	.	.	.	.	.	.	.
.	.	.	.	.	.	.	.	.	.	.	.	.	.	.	.	16BB-/yy	.	.	.	.	.	.	.	.	.	.	.	.	.	.	.	.	.	.	.
.	.	.	.	.	.	.	.	.	.	.	.	.	.	.	.	16BB-/yy	.	.	.	.	.	.	.	.	.	.	.	.	.	.	.	.	.	.	.
8BB-/yy	.	8BB-/yy	.	8BB-/)	sis	.	8d\)	.	.	.	.	.	.	.	.	16BB-/yy	8fyy\ 8B-\yy	.	8dd\)yy	.	.	.	8dyy\ 8Fyy\ 8BB-\yy	.	.	.	.	8Fyy\ 8BB-\yy	8fyy\ 8B-\yy	8dd/)yy	8b-\yy	.	8dd\yy	.	.
.	.	.	.	.	.	.	.	.	.	.	.	.	.	.	.	16BB-/JJyy	.	.	.	.	.	.	.	.	.	.	.	.	.	.	.	.	.	.	.
*	*	*	*	*	*	*	*	*	*	*	*	*	*	*	*	*Xtremolo	*	*	*	*	*	*	*	*	*	*	*	*	*	*	*	*	*	*	*
8E-\yy	.	8E-\yy	.	8E-\	.	.	8e-\	.	.	8b-\	.	.	8gg\	sis	.	8E-\yy	8gyy\ 8B-\yy	.	8ee-\yy	.	8gg\yy	.	8e-yy\ 8Gyy\ 8E-\yy	.	8g/)yy	8g\yy	.	8Gyy\ 8E-\yy	8gyy\ 8e-\yy	8ee-/yy	8b-\yy	8gg/)yy	8ee-\yy	.	8gg\yy
8G\Lyy	.	8G\Lyy	.	8G\	in	.	8g\	.	.	8g\	.	.	8gg\	in	.	8ryy	8A-'/Lyy	.	8g'/Lyy	.	8gg'\L)yy	.	8G'\Lyy	.	8g'/Lyy	8ryyyy	.	8G'\Lyy	8g'\Lyy	8g/Lyy	8ryyyy	8gg'\Lyy	8rgyyyy	.	8gg'\L)yy
8E-\Jyy	.	8E-\Jyy	.	8E-\	ex-	.	8e-\	.	.	8e-\	.	.	8ee-\	ex-	.	8ryy	8F'/Jyy	.	8e-'/Jyy	.	8ee-'\Jyy	.	8E-'\Jyy	.	8e-'/Jyy	8ryyyy	.	8E-'\Jyy	8e-'\Jyy	8e-/Jyy	8ryyyy	8ee-'\Jyy	8rgyyyy	.	8ee-'\Jyy
*	*	*	*	*	*	*	*	*	*	*	*	*	*	*	*	*	*	*	*	*	*	*	*	*	*	*	*	*	*	*	*	*v	*v	*	*
!LO:PB:g=original	!	!LO:PB:g=original	!	!LO:PB:g=original	!	!	!LO:PB:g=original	!	!	!LO:PB:g=original	!	!	!LO:PB:g=original	!	!	!LO:PB:g=original	!LO:PB:g=original	!	!LO:PB:g=original	!	!LO:PB:g=original	!	!LO:PB:g=original	!	!LO:PB:g=original	!	!	!LO:PB:g=original	!LO:PB:g=original	!	!LO:PB:g=original	!	!LO:PB:g=original	!LO:PB:g=original
=65	=65	=65	=65	=65	=65	=65	=65	=65	=65	=65	=65	=65	=65	=65	=65	=65	=65	=65	=65	=65	=65	=65	=65	=65	=65	=65	=65	=65	=65	=65	=65	=65	=65	=65
4B-\yy	.	4B-\yy	.	4B-\	-cael-	.	4B-\	.	.	4b-\	cael-	.	4bb-\	-cael-	.	4BB-/yy	4B-/yy	.	4b-/yy	.	4bb-\yy	.	4B-\yy	.	4b-/yy	4b-\yy	.	4B-yy\ 4BB-\yy	4b-yy\ 4B-\yy	4b-/yy	4b-\yy	4bb-\yy	2.ryyyy	4bb-\yy
8ryy	.	8ryy	.	8B-\	-sis	.	8B-\	.	.	8b-\	-sis	.	8bb-\	-sis	.	8ryy	8ryy	.	8ryy	.	8ryy	.	8ryy	.	8ryy	8rfyyyy	.	8ryy	8ryy	8ryy	8rfyyyy	8ryy	.	8ryy
4BB-/yy	.	4BB-/yy	.	4.BB-/	De-	.	4.f\	.	.	4.a-\	De-	.	4.dd\yy	De-	.	4BB-/yy	4fyy/ 4B-/yy	.	4aa-yy\ 4b-yy\ 4d\yy	.	4dddyy\ 4ff\yy	.	4dyy\ 4A-yy\ 4BB-\yy	.	4ddyy\ 4f\yy	4rfyyyy	.	4B-yy\ 4BB-\yy	4b-yy\ 4B-\yy	4ddyy\ 4a-\yy	4rfyyyy	4aa-yy\ 4ff\yy	.	4ddd\yy
8ryy	.	8ryy	.	.	.	.	.	.	.	.	.	.	.	.	.	8ryy	8ryy	.	8ryy	.	8ryy	.	8ryy	.	8ryy	8rfyyyy	.	8ryy	8ryy	8ryy	8rfyyyy	8ryy	.	8ryy
*	*	*	*	*	*	*	*	*	*	*	*	*	*	*	*	*	*	*	*	*	*	*	*	*	*v	*v	*	*	*	*v	*v	*	*	*
!LO:PB:g=original	!	!LO:PB:g=original	!	!	!	!	!	!	!	!	!	!	!	!	!	!	!	!	!	!	!LO:PB:g=original	!	!LO:PB:g=original	!	!LO:PB:g=original	!	!	!LO:PB:g=original	!LO:PB:g=original	!LO:PB:g=original	!	!LO:PB:g=original
=66	=66	=66	=66	=66	=66	=66	=66	=66	=66	=66	=66	=66	=66	=66	=66	=66	=66	=66	=66	=66	=66	=66	=66	=66	=66	=66	=66	=66	=66	=66	=66	=66
*	*	*	*	*	*	*	*	*	*	*	*	*	*	*	*	*	*	*	*	*	*	*	*	*	*	*	*	*^	*	*	*	*
!	!	!LO:TX:t=P:problem:t. 66 w vc zapisany jako unisono cb, ukryte	!	!	!	!	!	!	!	!	!	!	!	!	!	!	!	!	!	!	!	!	!	!	!	!	!	!	!	!	!	!	!LO:SIC:v:t=t.66 zapisany nw skanie 0057
4E-\	.	4E-\	.	4E-\	-o.	.	4e-\	.	.	4g\	-o	.	4ee-\	-o!	.	4E-\	4g\ 4B-\ 4E-\	.	4gg\ 4b-\ 4e-\	.	4eee-\ 4ee-\	.	4e-\ 4G\ 4E-\	.	4ee-\ 4g\	.	4B-\ 4E-\	4g/	4e-\	4ee-\ 4g\	4gg\ 4ee-\	2.ryy	4eee-\
8r	.	8r	.	8r	.	.	8r	.	.	8r	.	.	8r	.	.	8r	8r	.	8r	.	8r	.	8r	.	8r	.	8r	8r	8rGyy	8r	8r	.	8r
4r	.	4r	.	4r	.	.	4r	.	.	4r	.	.	4r	.	.	4r	4r	.	4r	.	4r	.	4r	.	4r	.	4r	4r	4rGyy	4r	4r	.	4r
8r	.	8r	.	8r	.	.	8r	.	.	8r	.	.	8r	.	.	8r	8r	.	8r	.	8r	.	8r	.	8r	.	8r	8r	8rGyy	8r	8r	.	8r
*	*	*	*	*	*	*	*	*	*	*	*	*	*	*	*	*	*	*	*	*	*	*	*	*	*	*	*	*v	*v	*	*	*	*
==	==	==	==	==	==	==	==	==	==	==	==	==	==	==	==	==	==	==	==	==	==	==	==	==	==	==	==	==	==	==	==	==
*-	*-	*-	*-	*-	*-	*-	*-	*-	*-	*-	*-	*-	*-	*-	*-	*-	*-	*-	*-	*-	*-	*-	*-	*-	*-	*-	*-	*-	*-	*-	*-	*-
!!!system-decoration: [{s1,s2},s3,s4,s5,s6,s7,s8,{s9,s10,s11},s12,{s13,s14,s15,s16},s17,s18]
!!!RDF**kern: > = above
!!!RDF**kern: < = below
!!!EED: Leszek Kubiak
!!!EST: 2021-05-04
!!!ENC: Marcin Jachim
!!!END: 2021-04-14
